(Exported by FreeCAD)
(Post Processor: linuxcnc_post)
(Output Time:2021-12-14 20:44:30.876396)
(begin preamble)
G17 G54 G40 G49 G80 G90
G21
(begin operation: Fixture)
(machine units: mm/min)
G54 
(finish operation: Fixture)
(begin operation: TC: 6.8mm_Drill)
(machine units: mm/min)
(TC: 6.8mm_Drill) 
M5
M6 T4 
G43 H4 
M3 S2500 
(finish operation: TC: 6.8mm_Drill)
(begin operation: Drilling)
(machine units: mm/min)
(Drilling) 
(Begin Drilling) 
G0 Z5.000 
G90 
G99 
G0 X-7.500 Y-12.500 
G0 Z2.500 
G1 Z-0.500 F240.000 
G83 X-7.500 Y-12.500 Z-18.043 F240.000 Q5.100 R2.500 
G80 
G0 Z3.000 
G0 X-7.500 Y-32.500 
G0 Z2.500 
G1 Z-0.500 F240.000 
G83 X-7.500 Y-32.500 Z-18.043 F240.000 Q5.100 R2.500 
G80 
G0 Z3.000 
G0 X-7.500 Y-52.500 
G0 Z2.500 
G1 Z-0.500 F240.000 
G83 X-7.500 Y-52.500 Z-18.043 F240.000 Q5.100 R2.500 
G80 
G0 Z3.000 
G0 X-7.500 Y-72.500 
G0 Z2.500 
G1 Z-0.500 F240.000 
G83 X-7.500 Y-72.500 Z-18.043 F240.000 Q5.100 R2.500 
G80 
G0 Z3.000 
G0 X-7.500 Y-92.500 
G0 Z2.500 
G1 Z-0.500 F240.000 
G83 X-7.500 Y-92.500 Z-18.043 F240.000 Q5.100 R2.500 
G80 
G0 Z3.000 
G0 X-7.500 Y-112.500 
G0 Z2.500 
G1 Z-0.500 F240.000 
G83 X-7.500 Y-112.500 Z-18.043 F240.000 Q5.100 R2.500 
G80 
G0 Z3.000 
G0 X-7.500 Y-132.500 
G0 Z2.500 
G1 Z-0.500 F240.000 
G83 X-7.500 Y-132.500 Z-18.043 F240.000 Q5.100 R2.500 
G80 
G0 Z3.000 
G0 X-7.500 Y-152.500 
G0 Z2.500 
G1 Z-0.500 F240.000 
G83 X-7.500 Y-152.500 Z-18.043 F240.000 Q5.100 R2.500 
G80 
G0 Z3.000 
G0 X-7.500 Y-172.500 
G0 Z2.500 
G1 Z-0.500 F240.000 
G83 X-7.500 Y-172.500 Z-18.043 F240.000 Q5.100 R2.500 
G80 
G0 Z3.000 
G0 X-27.500 Y-172.500 
G0 Z2.500 
G1 Z-0.500 F240.000 
G83 X-27.500 Y-172.500 Z-18.043 F240.000 Q5.100 R2.500 
G80 
G0 Z3.000 
G0 X-27.500 Y-152.500 
G0 Z2.500 
G1 Z-0.500 F240.000 
G83 X-27.500 Y-152.500 Z-18.043 F240.000 Q5.100 R2.500 
G80 
G0 Z3.000 
G0 X-27.500 Y-132.500 
G0 Z2.500 
G1 Z-0.500 F240.000 
G83 X-27.500 Y-132.500 Z-18.043 F240.000 Q5.100 R2.500 
G80 
G0 Z3.000 
G0 X-27.500 Y-112.500 
G0 Z2.500 
G1 Z-0.500 F240.000 
G83 X-27.500 Y-112.500 Z-18.043 F240.000 Q5.100 R2.500 
G80 
G0 Z3.000 
G0 X-27.500 Y-92.500 
G0 Z2.500 
G1 Z-0.500 F240.000 
G83 X-27.500 Y-92.500 Z-18.043 F240.000 Q5.100 R2.500 
G80 
G0 Z3.000 
G0 X-27.500 Y-72.500 
G0 Z2.500 
G1 Z-0.500 F240.000 
G83 X-27.500 Y-72.500 Z-18.043 F240.000 Q5.100 R2.500 
G80 
G0 Z3.000 
G0 X-27.500 Y-52.500 
G0 Z2.500 
G1 Z-0.500 F240.000 
G83 X-27.500 Y-52.500 Z-18.043 F240.000 Q5.100 R2.500 
G80 
G0 Z3.000 
G0 X-27.500 Y-32.500 
G0 Z2.500 
G1 Z-0.500 F240.000 
G83 X-27.500 Y-32.500 Z-18.043 F240.000 Q5.100 R2.500 
G80 
G0 Z3.000 
G0 X-27.500 Y-12.500 
G0 Z2.500 
G1 Z-0.500 F240.000 
G83 X-27.500 Y-12.500 Z-18.043 F240.000 Q5.100 R2.500 
G80 
G0 Z3.000 
G0 X-47.500 Y-12.500 
G0 Z2.500 
G1 Z-0.500 F240.000 
G83 X-47.500 Y-12.500 Z-18.043 F240.000 Q5.100 R2.500 
G80 
G0 Z3.000 
G0 X-47.500 Y-32.500 
G0 Z2.500 
G1 Z-0.500 F240.000 
G83 X-47.500 Y-32.500 Z-18.043 F240.000 Q5.100 R2.500 
G80 
G0 Z3.000 
G0 X-47.500 Y-52.500 
G0 Z2.500 
G1 Z-0.500 F240.000 
G83 X-47.500 Y-52.500 Z-18.043 F240.000 Q5.100 R2.500 
G80 
G0 Z3.000 
G0 X-47.500 Y-72.500 
G0 Z2.500 
G1 Z-0.500 F240.000 
G83 X-47.500 Y-72.500 Z-18.043 F240.000 Q5.100 R2.500 
G80 
G0 Z3.000 
G0 X-47.500 Y-92.500 
G0 Z2.500 
G1 Z-0.500 F240.000 
G83 X-47.500 Y-92.500 Z-18.043 F240.000 Q5.100 R2.500 
G80 
G0 Z3.000 
G0 X-47.500 Y-112.500 
G0 Z2.500 
G1 Z-0.500 F240.000 
G83 X-47.500 Y-112.500 Z-18.043 F240.000 Q5.100 R2.500 
G80 
G0 Z3.000 
G0 X-47.500 Y-132.500 
G0 Z2.500 
G1 Z-0.500 F240.000 
G83 X-47.500 Y-132.500 Z-18.043 F240.000 Q5.100 R2.500 
G80 
G0 Z3.000 
G0 X-47.500 Y-152.500 
G0 Z2.500 
G1 Z-0.500 F240.000 
G83 X-47.500 Y-152.500 Z-18.043 F240.000 Q5.100 R2.500 
G80 
G0 Z3.000 
G0 X-47.500 Y-172.500 
G0 Z2.500 
G1 Z-0.500 F240.000 
G83 X-47.500 Y-172.500 Z-18.043 F240.000 Q5.100 R2.500 
G80 
G0 Z3.000 
G0 X-67.500 Y-172.500 
G0 Z2.500 
G1 Z-0.500 F240.000 
G83 X-67.500 Y-172.500 Z-18.043 F240.000 Q5.100 R2.500 
G80 
G0 Z3.000 
G0 X-67.500 Y-152.500 
G0 Z2.500 
G1 Z-0.500 F240.000 
G83 X-67.500 Y-152.500 Z-18.043 F240.000 Q5.100 R2.500 
G80 
G0 Z3.000 
G0 X-67.500 Y-132.500 
G0 Z2.500 
G1 Z-0.500 F240.000 
G83 X-67.500 Y-132.500 Z-18.043 F240.000 Q5.100 R2.500 
G80 
G0 Z3.000 
G0 X-67.500 Y-112.500 
G0 Z2.500 
G1 Z-0.500 F240.000 
G83 X-67.500 Y-112.500 Z-18.043 F240.000 Q5.100 R2.500 
G80 
G0 Z3.000 
G0 X-67.500 Y-92.500 
G0 Z2.500 
G1 Z-0.500 F240.000 
G83 X-67.500 Y-92.500 Z-18.043 F240.000 Q5.100 R2.500 
G80 
G0 Z3.000 
G0 X-67.500 Y-72.500 
G0 Z2.500 
G1 Z-0.500 F240.000 
G83 X-67.500 Y-72.500 Z-18.043 F240.000 Q5.100 R2.500 
G80 
G0 Z3.000 
G0 X-67.500 Y-52.500 
G0 Z2.500 
G1 Z-0.500 F240.000 
G83 X-67.500 Y-52.500 Z-18.043 F240.000 Q5.100 R2.500 
G80 
G0 Z3.000 
G0 X-67.500 Y-32.500 
G0 Z2.500 
G1 Z-0.500 F240.000 
G83 X-67.500 Y-32.500 Z-18.043 F240.000 Q5.100 R2.500 
G80 
G0 Z3.000 
G0 X-67.500 Y-12.500 
G0 Z2.500 
G1 Z-0.500 F240.000 
G83 X-67.500 Y-12.500 Z-18.043 F240.000 Q5.100 R2.500 
G80 
G0 Z3.000 
G0 Z5.000 
(finish operation: Drilling)
(begin operation: TC: 6mm Endmill)
(machine units: mm/min)
(TC: 6mm Endmill) 
M5
M6 T3 
G43 H3 
M3 S3000 
(finish operation: TC: 6mm Endmill)
(begin operation: Helix)
(machine units: mm/min)
(Helix) 
(helix cut operation) 
G0 Z5.000 
G0 X-26.500 Y-12.500 
G0 Z3.000 
G1 Z0.000 F56.500 
G3 X-28.500 Y-12.500 Z-0.500 I-1.000 J0.000 F570.000 
G3 X-26.500 Y-12.500 Z-1.000 I1.000 J0.000 F570.000 
G3 X-28.500 Y-12.500 Z-1.500 I-1.000 J0.000 F570.000 
G3 X-26.500 Y-12.500 Z-2.000 I1.000 J0.000 F570.000 
G3 X-28.500 Y-12.500 Z-2.500 I-1.000 J0.000 F570.000 
G3 X-26.500 Y-12.500 Z-3.000 I1.000 J0.000 F570.000 
G3 X-28.500 Y-12.500 Z-3.500 I-1.000 J0.000 F570.000 
G3 X-26.500 Y-12.500 Z-4.000 I1.000 J0.000 F570.000 
G3 X-28.500 Y-12.500 Z-4.500 I-1.000 J0.000 F570.000 
G3 X-26.500 Y-12.500 Z-5.000 I1.000 J0.000 F570.000 
G3 X-28.500 Y-12.500 Z-5.500 I-1.000 J0.000 F570.000 
G3 X-26.500 Y-12.500 Z-6.000 I1.000 J0.000 F570.000 
G3 X-28.500 Y-12.500 Z-6.500 I-1.000 J0.000 F570.000 
G3 X-26.500 Y-12.500 Z-7.000 I1.000 J0.000 F570.000 
G3 X-28.500 Y-12.500 Z-7.500 I-1.000 J0.000 F570.000 
G3 X-26.500 Y-12.500 Z-8.000 I1.000 J0.000 F570.000 
G3 X-28.500 Y-12.500 Z-8.500 I-1.000 J0.000 F570.000 
G3 X-26.500 Y-12.500 Z-9.000 I1.000 J0.000 F570.000 
G3 X-28.500 Y-12.500 Z-9.500 I-1.000 J0.000 F570.000 
G3 X-26.500 Y-12.500 Z-10.000 I1.000 J0.000 F570.000 
G3 X-28.500 Y-12.500 Z-10.500 I-1.000 J0.000 F570.000 
G3 X-26.500 Y-12.500 Z-11.000 I1.000 J0.000 F570.000 
G3 X-28.500 Y-12.500 Z-11.500 I-1.000 J0.000 F570.000 
G3 X-26.500 Y-12.500 Z-12.000 I1.000 J0.000 F570.000 
G3 X-28.500 Y-12.500 Z-12.500 I-1.000 J0.000 F570.000 
G3 X-26.500 Y-12.500 Z-13.000 I1.000 J0.000 F570.000 
G3 X-28.500 Y-12.500 Z-13.500 I-1.000 J0.000 F570.000 
G3 X-26.500 Y-12.500 Z-14.000 I1.000 J0.000 F570.000 
G3 X-28.500 Y-12.500 Z-14.500 I-1.000 J0.000 F570.000 
G3 X-26.500 Y-12.500 Z-15.000 I1.000 J0.000 F570.000 
G3 X-28.500 Y-12.500 Z-15.500 I-1.000 J0.000 F570.000 
G3 X-26.500 Y-12.500 Z-16.000 I1.000 J0.000 F570.000 
G3 X-28.500 Y-12.500 Z-16.000 I-1.000 J0.000 F570.000 
G3 X-26.500 Y-12.500 Z-16.000 I1.000 J0.000 F570.000 
G0 Z3.000 
G0 X-6.500 Y-32.500 
G0 Z3.000 
G1 Z0.000 F56.500 
G3 X-8.500 Y-32.500 Z-0.500 I-1.000 J0.000 F570.000 
G3 X-6.500 Y-32.500 Z-1.000 I1.000 J0.000 F570.000 
G3 X-8.500 Y-32.500 Z-1.500 I-1.000 J0.000 F570.000 
G3 X-6.500 Y-32.500 Z-2.000 I1.000 J0.000 F570.000 
G3 X-8.500 Y-32.500 Z-2.500 I-1.000 J0.000 F570.000 
G3 X-6.500 Y-32.500 Z-3.000 I1.000 J0.000 F570.000 
G3 X-8.500 Y-32.500 Z-3.500 I-1.000 J0.000 F570.000 
G3 X-6.500 Y-32.500 Z-4.000 I1.000 J0.000 F570.000 
G3 X-8.500 Y-32.500 Z-4.500 I-1.000 J0.000 F570.000 
G3 X-6.500 Y-32.500 Z-5.000 I1.000 J0.000 F570.000 
G3 X-8.500 Y-32.500 Z-5.500 I-1.000 J0.000 F570.000 
G3 X-6.500 Y-32.500 Z-6.000 I1.000 J0.000 F570.000 
G3 X-8.500 Y-32.500 Z-6.500 I-1.000 J0.000 F570.000 
G3 X-6.500 Y-32.500 Z-7.000 I1.000 J0.000 F570.000 
G3 X-8.500 Y-32.500 Z-7.500 I-1.000 J0.000 F570.000 
G3 X-6.500 Y-32.500 Z-8.000 I1.000 J0.000 F570.000 
G3 X-8.500 Y-32.500 Z-8.500 I-1.000 J0.000 F570.000 
G3 X-6.500 Y-32.500 Z-9.000 I1.000 J0.000 F570.000 
G3 X-8.500 Y-32.500 Z-9.500 I-1.000 J0.000 F570.000 
G3 X-6.500 Y-32.500 Z-10.000 I1.000 J0.000 F570.000 
G3 X-8.500 Y-32.500 Z-10.500 I-1.000 J0.000 F570.000 
G3 X-6.500 Y-32.500 Z-11.000 I1.000 J0.000 F570.000 
G3 X-8.500 Y-32.500 Z-11.500 I-1.000 J0.000 F570.000 
G3 X-6.500 Y-32.500 Z-12.000 I1.000 J0.000 F570.000 
G3 X-8.500 Y-32.500 Z-12.500 I-1.000 J0.000 F570.000 
G3 X-6.500 Y-32.500 Z-13.000 I1.000 J0.000 F570.000 
G3 X-8.500 Y-32.500 Z-13.500 I-1.000 J0.000 F570.000 
G3 X-6.500 Y-32.500 Z-14.000 I1.000 J0.000 F570.000 
G3 X-8.500 Y-32.500 Z-14.500 I-1.000 J0.000 F570.000 
G3 X-6.500 Y-32.500 Z-15.000 I1.000 J0.000 F570.000 
G3 X-8.500 Y-32.500 Z-15.500 I-1.000 J0.000 F570.000 
G3 X-6.500 Y-32.500 Z-16.000 I1.000 J0.000 F570.000 
G3 X-8.500 Y-32.500 Z-16.000 I-1.000 J0.000 F570.000 
G3 X-6.500 Y-32.500 Z-16.000 I1.000 J0.000 F570.000 
G0 Z3.000 
G0 X-26.500 Y-52.500 
G0 Z3.000 
G1 Z0.000 F56.500 
G3 X-28.500 Y-52.500 Z-0.500 I-1.000 J0.000 F570.000 
G3 X-26.500 Y-52.500 Z-1.000 I1.000 J0.000 F570.000 
G3 X-28.500 Y-52.500 Z-1.500 I-1.000 J0.000 F570.000 
G3 X-26.500 Y-52.500 Z-2.000 I1.000 J0.000 F570.000 
G3 X-28.500 Y-52.500 Z-2.500 I-1.000 J0.000 F570.000 
G3 X-26.500 Y-52.500 Z-3.000 I1.000 J0.000 F570.000 
G3 X-28.500 Y-52.500 Z-3.500 I-1.000 J0.000 F570.000 
G3 X-26.500 Y-52.500 Z-4.000 I1.000 J0.000 F570.000 
G3 X-28.500 Y-52.500 Z-4.500 I-1.000 J0.000 F570.000 
G3 X-26.500 Y-52.500 Z-5.000 I1.000 J0.000 F570.000 
G3 X-28.500 Y-52.500 Z-5.500 I-1.000 J0.000 F570.000 
G3 X-26.500 Y-52.500 Z-6.000 I1.000 J0.000 F570.000 
G3 X-28.500 Y-52.500 Z-6.500 I-1.000 J0.000 F570.000 
G3 X-26.500 Y-52.500 Z-7.000 I1.000 J0.000 F570.000 
G3 X-28.500 Y-52.500 Z-7.500 I-1.000 J0.000 F570.000 
G3 X-26.500 Y-52.500 Z-8.000 I1.000 J0.000 F570.000 
G3 X-28.500 Y-52.500 Z-8.500 I-1.000 J0.000 F570.000 
G3 X-26.500 Y-52.500 Z-9.000 I1.000 J0.000 F570.000 
G3 X-28.500 Y-52.500 Z-9.500 I-1.000 J0.000 F570.000 
G3 X-26.500 Y-52.500 Z-10.000 I1.000 J0.000 F570.000 
G3 X-28.500 Y-52.500 Z-10.500 I-1.000 J0.000 F570.000 
G3 X-26.500 Y-52.500 Z-11.000 I1.000 J0.000 F570.000 
G3 X-28.500 Y-52.500 Z-11.500 I-1.000 J0.000 F570.000 
G3 X-26.500 Y-52.500 Z-12.000 I1.000 J0.000 F570.000 
G3 X-28.500 Y-52.500 Z-12.500 I-1.000 J0.000 F570.000 
G3 X-26.500 Y-52.500 Z-13.000 I1.000 J0.000 F570.000 
G3 X-28.500 Y-52.500 Z-13.500 I-1.000 J0.000 F570.000 
G3 X-26.500 Y-52.500 Z-14.000 I1.000 J0.000 F570.000 
G3 X-28.500 Y-52.500 Z-14.500 I-1.000 J0.000 F570.000 
G3 X-26.500 Y-52.500 Z-15.000 I1.000 J0.000 F570.000 
G3 X-28.500 Y-52.500 Z-15.500 I-1.000 J0.000 F570.000 
G3 X-26.500 Y-52.500 Z-16.000 I1.000 J0.000 F570.000 
G3 X-28.500 Y-52.500 Z-16.000 I-1.000 J0.000 F570.000 
G3 X-26.500 Y-52.500 Z-16.000 I1.000 J0.000 F570.000 
G0 Z3.000 
G0 X-6.500 Y-72.500 
G0 Z3.000 
G1 Z0.000 F56.500 
G3 X-8.500 Y-72.500 Z-0.500 I-1.000 J0.000 F570.000 
G3 X-6.500 Y-72.500 Z-1.000 I1.000 J0.000 F570.000 
G3 X-8.500 Y-72.500 Z-1.500 I-1.000 J0.000 F570.000 
G3 X-6.500 Y-72.500 Z-2.000 I1.000 J0.000 F570.000 
G3 X-8.500 Y-72.500 Z-2.500 I-1.000 J0.000 F570.000 
G3 X-6.500 Y-72.500 Z-3.000 I1.000 J0.000 F570.000 
G3 X-8.500 Y-72.500 Z-3.500 I-1.000 J0.000 F570.000 
G3 X-6.500 Y-72.500 Z-4.000 I1.000 J0.000 F570.000 
G3 X-8.500 Y-72.500 Z-4.500 I-1.000 J0.000 F570.000 
G3 X-6.500 Y-72.500 Z-5.000 I1.000 J0.000 F570.000 
G3 X-8.500 Y-72.500 Z-5.500 I-1.000 J0.000 F570.000 
G3 X-6.500 Y-72.500 Z-6.000 I1.000 J0.000 F570.000 
G3 X-8.500 Y-72.500 Z-6.500 I-1.000 J0.000 F570.000 
G3 X-6.500 Y-72.500 Z-7.000 I1.000 J0.000 F570.000 
G3 X-8.500 Y-72.500 Z-7.500 I-1.000 J0.000 F570.000 
G3 X-6.500 Y-72.500 Z-8.000 I1.000 J0.000 F570.000 
G3 X-8.500 Y-72.500 Z-8.500 I-1.000 J0.000 F570.000 
G3 X-6.500 Y-72.500 Z-9.000 I1.000 J0.000 F570.000 
G3 X-8.500 Y-72.500 Z-9.500 I-1.000 J0.000 F570.000 
G3 X-6.500 Y-72.500 Z-10.000 I1.000 J0.000 F570.000 
G3 X-8.500 Y-72.500 Z-10.500 I-1.000 J0.000 F570.000 
G3 X-6.500 Y-72.500 Z-11.000 I1.000 J0.000 F570.000 
G3 X-8.500 Y-72.500 Z-11.500 I-1.000 J0.000 F570.000 
G3 X-6.500 Y-72.500 Z-12.000 I1.000 J0.000 F570.000 
G3 X-8.500 Y-72.500 Z-12.500 I-1.000 J0.000 F570.000 
G3 X-6.500 Y-72.500 Z-13.000 I1.000 J0.000 F570.000 
G3 X-8.500 Y-72.500 Z-13.500 I-1.000 J0.000 F570.000 
G3 X-6.500 Y-72.500 Z-14.000 I1.000 J0.000 F570.000 
G3 X-8.500 Y-72.500 Z-14.500 I-1.000 J0.000 F570.000 
G3 X-6.500 Y-72.500 Z-15.000 I1.000 J0.000 F570.000 
G3 X-8.500 Y-72.500 Z-15.500 I-1.000 J0.000 F570.000 
G3 X-6.500 Y-72.500 Z-16.000 I1.000 J0.000 F570.000 
G3 X-8.500 Y-72.500 Z-16.000 I-1.000 J0.000 F570.000 
G3 X-6.500 Y-72.500 Z-16.000 I1.000 J0.000 F570.000 
G0 Z3.000 
G0 X-26.500 Y-92.500 
G0 Z3.000 
G1 Z0.000 F56.500 
G3 X-28.500 Y-92.500 Z-0.500 I-1.000 J0.000 F570.000 
G3 X-26.500 Y-92.500 Z-1.000 I1.000 J0.000 F570.000 
G3 X-28.500 Y-92.500 Z-1.500 I-1.000 J0.000 F570.000 
G3 X-26.500 Y-92.500 Z-2.000 I1.000 J0.000 F570.000 
G3 X-28.500 Y-92.500 Z-2.500 I-1.000 J0.000 F570.000 
G3 X-26.500 Y-92.500 Z-3.000 I1.000 J0.000 F570.000 
G3 X-28.500 Y-92.500 Z-3.500 I-1.000 J0.000 F570.000 
G3 X-26.500 Y-92.500 Z-4.000 I1.000 J0.000 F570.000 
G3 X-28.500 Y-92.500 Z-4.500 I-1.000 J0.000 F570.000 
G3 X-26.500 Y-92.500 Z-5.000 I1.000 J0.000 F570.000 
G3 X-28.500 Y-92.500 Z-5.500 I-1.000 J0.000 F570.000 
G3 X-26.500 Y-92.500 Z-6.000 I1.000 J0.000 F570.000 
G3 X-28.500 Y-92.500 Z-6.500 I-1.000 J0.000 F570.000 
G3 X-26.500 Y-92.500 Z-7.000 I1.000 J0.000 F570.000 
G3 X-28.500 Y-92.500 Z-7.500 I-1.000 J0.000 F570.000 
G3 X-26.500 Y-92.500 Z-8.000 I1.000 J0.000 F570.000 
G3 X-28.500 Y-92.500 Z-8.500 I-1.000 J0.000 F570.000 
G3 X-26.500 Y-92.500 Z-9.000 I1.000 J0.000 F570.000 
G3 X-28.500 Y-92.500 Z-9.500 I-1.000 J0.000 F570.000 
G3 X-26.500 Y-92.500 Z-10.000 I1.000 J0.000 F570.000 
G3 X-28.500 Y-92.500 Z-10.500 I-1.000 J0.000 F570.000 
G3 X-26.500 Y-92.500 Z-11.000 I1.000 J0.000 F570.000 
G3 X-28.500 Y-92.500 Z-11.500 I-1.000 J0.000 F570.000 
G3 X-26.500 Y-92.500 Z-12.000 I1.000 J0.000 F570.000 
G3 X-28.500 Y-92.500 Z-12.500 I-1.000 J0.000 F570.000 
G3 X-26.500 Y-92.500 Z-13.000 I1.000 J0.000 F570.000 
G3 X-28.500 Y-92.500 Z-13.500 I-1.000 J0.000 F570.000 
G3 X-26.500 Y-92.500 Z-14.000 I1.000 J0.000 F570.000 
G3 X-28.500 Y-92.500 Z-14.500 I-1.000 J0.000 F570.000 
G3 X-26.500 Y-92.500 Z-15.000 I1.000 J0.000 F570.000 
G3 X-28.500 Y-92.500 Z-15.500 I-1.000 J0.000 F570.000 
G3 X-26.500 Y-92.500 Z-16.000 I1.000 J0.000 F570.000 
G3 X-28.500 Y-92.500 Z-16.000 I-1.000 J0.000 F570.000 
G3 X-26.500 Y-92.500 Z-16.000 I1.000 J0.000 F570.000 
G0 Z3.000 
G0 X-6.500 Y-112.500 
G0 Z3.000 
G1 Z0.000 F56.500 
G3 X-8.500 Y-112.500 Z-0.500 I-1.000 J0.000 F570.000 
G3 X-6.500 Y-112.500 Z-1.000 I1.000 J0.000 F570.000 
G3 X-8.500 Y-112.500 Z-1.500 I-1.000 J0.000 F570.000 
G3 X-6.500 Y-112.500 Z-2.000 I1.000 J0.000 F570.000 
G3 X-8.500 Y-112.500 Z-2.500 I-1.000 J0.000 F570.000 
G3 X-6.500 Y-112.500 Z-3.000 I1.000 J0.000 F570.000 
G3 X-8.500 Y-112.500 Z-3.500 I-1.000 J0.000 F570.000 
G3 X-6.500 Y-112.500 Z-4.000 I1.000 J0.000 F570.000 
G3 X-8.500 Y-112.500 Z-4.500 I-1.000 J0.000 F570.000 
G3 X-6.500 Y-112.500 Z-5.000 I1.000 J0.000 F570.000 
G3 X-8.500 Y-112.500 Z-5.500 I-1.000 J0.000 F570.000 
G3 X-6.500 Y-112.500 Z-6.000 I1.000 J0.000 F570.000 
G3 X-8.500 Y-112.500 Z-6.500 I-1.000 J0.000 F570.000 
G3 X-6.500 Y-112.500 Z-7.000 I1.000 J0.000 F570.000 
G3 X-8.500 Y-112.500 Z-7.500 I-1.000 J0.000 F570.000 
G3 X-6.500 Y-112.500 Z-8.000 I1.000 J0.000 F570.000 
G3 X-8.500 Y-112.500 Z-8.500 I-1.000 J0.000 F570.000 
G3 X-6.500 Y-112.500 Z-9.000 I1.000 J0.000 F570.000 
G3 X-8.500 Y-112.500 Z-9.500 I-1.000 J0.000 F570.000 
G3 X-6.500 Y-112.500 Z-10.000 I1.000 J0.000 F570.000 
G3 X-8.500 Y-112.500 Z-10.500 I-1.000 J0.000 F570.000 
G3 X-6.500 Y-112.500 Z-11.000 I1.000 J0.000 F570.000 
G3 X-8.500 Y-112.500 Z-11.500 I-1.000 J0.000 F570.000 
G3 X-6.500 Y-112.500 Z-12.000 I1.000 J0.000 F570.000 
G3 X-8.500 Y-112.500 Z-12.500 I-1.000 J0.000 F570.000 
G3 X-6.500 Y-112.500 Z-13.000 I1.000 J0.000 F570.000 
G3 X-8.500 Y-112.500 Z-13.500 I-1.000 J0.000 F570.000 
G3 X-6.500 Y-112.500 Z-14.000 I1.000 J0.000 F570.000 
G3 X-8.500 Y-112.500 Z-14.500 I-1.000 J0.000 F570.000 
G3 X-6.500 Y-112.500 Z-15.000 I1.000 J0.000 F570.000 
G3 X-8.500 Y-112.500 Z-15.500 I-1.000 J0.000 F570.000 
G3 X-6.500 Y-112.500 Z-16.000 I1.000 J0.000 F570.000 
G3 X-8.500 Y-112.500 Z-16.000 I-1.000 J0.000 F570.000 
G3 X-6.500 Y-112.500 Z-16.000 I1.000 J0.000 F570.000 
G0 Z3.000 
G0 X-26.500 Y-132.500 
G0 Z3.000 
G1 Z0.000 F56.500 
G3 X-28.500 Y-132.500 Z-0.500 I-1.000 J0.000 F570.000 
G3 X-26.500 Y-132.500 Z-1.000 I1.000 J0.000 F570.000 
G3 X-28.500 Y-132.500 Z-1.500 I-1.000 J0.000 F570.000 
G3 X-26.500 Y-132.500 Z-2.000 I1.000 J0.000 F570.000 
G3 X-28.500 Y-132.500 Z-2.500 I-1.000 J0.000 F570.000 
G3 X-26.500 Y-132.500 Z-3.000 I1.000 J0.000 F570.000 
G3 X-28.500 Y-132.500 Z-3.500 I-1.000 J0.000 F570.000 
G3 X-26.500 Y-132.500 Z-4.000 I1.000 J0.000 F570.000 
G3 X-28.500 Y-132.500 Z-4.500 I-1.000 J0.000 F570.000 
G3 X-26.500 Y-132.500 Z-5.000 I1.000 J0.000 F570.000 
G3 X-28.500 Y-132.500 Z-5.500 I-1.000 J0.000 F570.000 
G3 X-26.500 Y-132.500 Z-6.000 I1.000 J0.000 F570.000 
G3 X-28.500 Y-132.500 Z-6.500 I-1.000 J0.000 F570.000 
G3 X-26.500 Y-132.500 Z-7.000 I1.000 J0.000 F570.000 
G3 X-28.500 Y-132.500 Z-7.500 I-1.000 J0.000 F570.000 
G3 X-26.500 Y-132.500 Z-8.000 I1.000 J0.000 F570.000 
G3 X-28.500 Y-132.500 Z-8.500 I-1.000 J0.000 F570.000 
G3 X-26.500 Y-132.500 Z-9.000 I1.000 J0.000 F570.000 
G3 X-28.500 Y-132.500 Z-9.500 I-1.000 J0.000 F570.000 
G3 X-26.500 Y-132.500 Z-10.000 I1.000 J0.000 F570.000 
G3 X-28.500 Y-132.500 Z-10.500 I-1.000 J0.000 F570.000 
G3 X-26.500 Y-132.500 Z-11.000 I1.000 J0.000 F570.000 
G3 X-28.500 Y-132.500 Z-11.500 I-1.000 J0.000 F570.000 
G3 X-26.500 Y-132.500 Z-12.000 I1.000 J0.000 F570.000 
G3 X-28.500 Y-132.500 Z-12.500 I-1.000 J0.000 F570.000 
G3 X-26.500 Y-132.500 Z-13.000 I1.000 J0.000 F570.000 
G3 X-28.500 Y-132.500 Z-13.500 I-1.000 J0.000 F570.000 
G3 X-26.500 Y-132.500 Z-14.000 I1.000 J0.000 F570.000 
G3 X-28.500 Y-132.500 Z-14.500 I-1.000 J0.000 F570.000 
G3 X-26.500 Y-132.500 Z-15.000 I1.000 J0.000 F570.000 
G3 X-28.500 Y-132.500 Z-15.500 I-1.000 J0.000 F570.000 
G3 X-26.500 Y-132.500 Z-16.000 I1.000 J0.000 F570.000 
G3 X-28.500 Y-132.500 Z-16.000 I-1.000 J0.000 F570.000 
G3 X-26.500 Y-132.500 Z-16.000 I1.000 J0.000 F570.000 
G0 Z3.000 
G0 X-6.500 Y-152.500 
G0 Z3.000 
G1 Z0.000 F56.500 
G3 X-8.500 Y-152.500 Z-0.500 I-1.000 J0.000 F570.000 
G3 X-6.500 Y-152.500 Z-1.000 I1.000 J0.000 F570.000 
G3 X-8.500 Y-152.500 Z-1.500 I-1.000 J0.000 F570.000 
G3 X-6.500 Y-152.500 Z-2.000 I1.000 J0.000 F570.000 
G3 X-8.500 Y-152.500 Z-2.500 I-1.000 J0.000 F570.000 
G3 X-6.500 Y-152.500 Z-3.000 I1.000 J0.000 F570.000 
G3 X-8.500 Y-152.500 Z-3.500 I-1.000 J0.000 F570.000 
G3 X-6.500 Y-152.500 Z-4.000 I1.000 J0.000 F570.000 
G3 X-8.500 Y-152.500 Z-4.500 I-1.000 J0.000 F570.000 
G3 X-6.500 Y-152.500 Z-5.000 I1.000 J0.000 F570.000 
G3 X-8.500 Y-152.500 Z-5.500 I-1.000 J0.000 F570.000 
G3 X-6.500 Y-152.500 Z-6.000 I1.000 J0.000 F570.000 
G3 X-8.500 Y-152.500 Z-6.500 I-1.000 J0.000 F570.000 
G3 X-6.500 Y-152.500 Z-7.000 I1.000 J0.000 F570.000 
G3 X-8.500 Y-152.500 Z-7.500 I-1.000 J0.000 F570.000 
G3 X-6.500 Y-152.500 Z-8.000 I1.000 J0.000 F570.000 
G3 X-8.500 Y-152.500 Z-8.500 I-1.000 J0.000 F570.000 
G3 X-6.500 Y-152.500 Z-9.000 I1.000 J0.000 F570.000 
G3 X-8.500 Y-152.500 Z-9.500 I-1.000 J0.000 F570.000 
G3 X-6.500 Y-152.500 Z-10.000 I1.000 J0.000 F570.000 
G3 X-8.500 Y-152.500 Z-10.500 I-1.000 J0.000 F570.000 
G3 X-6.500 Y-152.500 Z-11.000 I1.000 J0.000 F570.000 
G3 X-8.500 Y-152.500 Z-11.500 I-1.000 J0.000 F570.000 
G3 X-6.500 Y-152.500 Z-12.000 I1.000 J0.000 F570.000 
G3 X-8.500 Y-152.500 Z-12.500 I-1.000 J0.000 F570.000 
G3 X-6.500 Y-152.500 Z-13.000 I1.000 J0.000 F570.000 
G3 X-8.500 Y-152.500 Z-13.500 I-1.000 J0.000 F570.000 
G3 X-6.500 Y-152.500 Z-14.000 I1.000 J0.000 F570.000 
G3 X-8.500 Y-152.500 Z-14.500 I-1.000 J0.000 F570.000 
G3 X-6.500 Y-152.500 Z-15.000 I1.000 J0.000 F570.000 
G3 X-8.500 Y-152.500 Z-15.500 I-1.000 J0.000 F570.000 
G3 X-6.500 Y-152.500 Z-16.000 I1.000 J0.000 F570.000 
G3 X-8.500 Y-152.500 Z-16.000 I-1.000 J0.000 F570.000 
G3 X-6.500 Y-152.500 Z-16.000 I1.000 J0.000 F570.000 
G0 Z3.000 
G0 X-26.500 Y-172.500 
G0 Z3.000 
G1 Z0.000 F56.500 
G3 X-28.500 Y-172.500 Z-0.500 I-1.000 J0.000 F570.000 
G3 X-26.500 Y-172.500 Z-1.000 I1.000 J0.000 F570.000 
G3 X-28.500 Y-172.500 Z-1.500 I-1.000 J0.000 F570.000 
G3 X-26.500 Y-172.500 Z-2.000 I1.000 J0.000 F570.000 
G3 X-28.500 Y-172.500 Z-2.500 I-1.000 J0.000 F570.000 
G3 X-26.500 Y-172.500 Z-3.000 I1.000 J0.000 F570.000 
G3 X-28.500 Y-172.500 Z-3.500 I-1.000 J0.000 F570.000 
G3 X-26.500 Y-172.500 Z-4.000 I1.000 J0.000 F570.000 
G3 X-28.500 Y-172.500 Z-4.500 I-1.000 J0.000 F570.000 
G3 X-26.500 Y-172.500 Z-5.000 I1.000 J0.000 F570.000 
G3 X-28.500 Y-172.500 Z-5.500 I-1.000 J0.000 F570.000 
G3 X-26.500 Y-172.500 Z-6.000 I1.000 J0.000 F570.000 
G3 X-28.500 Y-172.500 Z-6.500 I-1.000 J0.000 F570.000 
G3 X-26.500 Y-172.500 Z-7.000 I1.000 J0.000 F570.000 
G3 X-28.500 Y-172.500 Z-7.500 I-1.000 J0.000 F570.000 
G3 X-26.500 Y-172.500 Z-8.000 I1.000 J0.000 F570.000 
G3 X-28.500 Y-172.500 Z-8.500 I-1.000 J0.000 F570.000 
G3 X-26.500 Y-172.500 Z-9.000 I1.000 J0.000 F570.000 
G3 X-28.500 Y-172.500 Z-9.500 I-1.000 J0.000 F570.000 
G3 X-26.500 Y-172.500 Z-10.000 I1.000 J0.000 F570.000 
G3 X-28.500 Y-172.500 Z-10.500 I-1.000 J0.000 F570.000 
G3 X-26.500 Y-172.500 Z-11.000 I1.000 J0.000 F570.000 
G3 X-28.500 Y-172.500 Z-11.500 I-1.000 J0.000 F570.000 
G3 X-26.500 Y-172.500 Z-12.000 I1.000 J0.000 F570.000 
G3 X-28.500 Y-172.500 Z-12.500 I-1.000 J0.000 F570.000 
G3 X-26.500 Y-172.500 Z-13.000 I1.000 J0.000 F570.000 
G3 X-28.500 Y-172.500 Z-13.500 I-1.000 J0.000 F570.000 
G3 X-26.500 Y-172.500 Z-14.000 I1.000 J0.000 F570.000 
G3 X-28.500 Y-172.500 Z-14.500 I-1.000 J0.000 F570.000 
G3 X-26.500 Y-172.500 Z-15.000 I1.000 J0.000 F570.000 
G3 X-28.500 Y-172.500 Z-15.500 I-1.000 J0.000 F570.000 
G3 X-26.500 Y-172.500 Z-16.000 I1.000 J0.000 F570.000 
G3 X-28.500 Y-172.500 Z-16.000 I-1.000 J0.000 F570.000 
G3 X-26.500 Y-172.500 Z-16.000 I1.000 J0.000 F570.000 
G0 Z3.000 
G0 X-46.500 Y-152.500 
G0 Z3.000 
G1 Z0.000 F56.500 
G3 X-48.500 Y-152.500 Z-0.500 I-1.000 J0.000 F570.000 
G3 X-46.500 Y-152.500 Z-1.000 I1.000 J0.000 F570.000 
G3 X-48.500 Y-152.500 Z-1.500 I-1.000 J0.000 F570.000 
G3 X-46.500 Y-152.500 Z-2.000 I1.000 J0.000 F570.000 
G3 X-48.500 Y-152.500 Z-2.500 I-1.000 J0.000 F570.000 
G3 X-46.500 Y-152.500 Z-3.000 I1.000 J0.000 F570.000 
G3 X-48.500 Y-152.500 Z-3.500 I-1.000 J0.000 F570.000 
G3 X-46.500 Y-152.500 Z-4.000 I1.000 J0.000 F570.000 
G3 X-48.500 Y-152.500 Z-4.500 I-1.000 J0.000 F570.000 
G3 X-46.500 Y-152.500 Z-5.000 I1.000 J0.000 F570.000 
G3 X-48.500 Y-152.500 Z-5.500 I-1.000 J0.000 F570.000 
G3 X-46.500 Y-152.500 Z-6.000 I1.000 J0.000 F570.000 
G3 X-48.500 Y-152.500 Z-6.500 I-1.000 J0.000 F570.000 
G3 X-46.500 Y-152.500 Z-7.000 I1.000 J0.000 F570.000 
G3 X-48.500 Y-152.500 Z-7.500 I-1.000 J0.000 F570.000 
G3 X-46.500 Y-152.500 Z-8.000 I1.000 J0.000 F570.000 
G3 X-48.500 Y-152.500 Z-8.500 I-1.000 J0.000 F570.000 
G3 X-46.500 Y-152.500 Z-9.000 I1.000 J0.000 F570.000 
G3 X-48.500 Y-152.500 Z-9.500 I-1.000 J0.000 F570.000 
G3 X-46.500 Y-152.500 Z-10.000 I1.000 J0.000 F570.000 
G3 X-48.500 Y-152.500 Z-10.500 I-1.000 J0.000 F570.000 
G3 X-46.500 Y-152.500 Z-11.000 I1.000 J0.000 F570.000 
G3 X-48.500 Y-152.500 Z-11.500 I-1.000 J0.000 F570.000 
G3 X-46.500 Y-152.500 Z-12.000 I1.000 J0.000 F570.000 
G3 X-48.500 Y-152.500 Z-12.500 I-1.000 J0.000 F570.000 
G3 X-46.500 Y-152.500 Z-13.000 I1.000 J0.000 F570.000 
G3 X-48.500 Y-152.500 Z-13.500 I-1.000 J0.000 F570.000 
G3 X-46.500 Y-152.500 Z-14.000 I1.000 J0.000 F570.000 
G3 X-48.500 Y-152.500 Z-14.500 I-1.000 J0.000 F570.000 
G3 X-46.500 Y-152.500 Z-15.000 I1.000 J0.000 F570.000 
G3 X-48.500 Y-152.500 Z-15.500 I-1.000 J0.000 F570.000 
G3 X-46.500 Y-152.500 Z-16.000 I1.000 J0.000 F570.000 
G3 X-48.500 Y-152.500 Z-16.000 I-1.000 J0.000 F570.000 
G3 X-46.500 Y-152.500 Z-16.000 I1.000 J0.000 F570.000 
G0 Z3.000 
G0 X-66.500 Y-172.500 
G0 Z3.000 
G1 Z0.000 F56.500 
G3 X-68.500 Y-172.500 Z-0.500 I-1.000 J0.000 F570.000 
G3 X-66.500 Y-172.500 Z-1.000 I1.000 J0.000 F570.000 
G3 X-68.500 Y-172.500 Z-1.500 I-1.000 J0.000 F570.000 
G3 X-66.500 Y-172.500 Z-2.000 I1.000 J0.000 F570.000 
G3 X-68.500 Y-172.500 Z-2.500 I-1.000 J0.000 F570.000 
G3 X-66.500 Y-172.500 Z-3.000 I1.000 J0.000 F570.000 
G3 X-68.500 Y-172.500 Z-3.500 I-1.000 J0.000 F570.000 
G3 X-66.500 Y-172.500 Z-4.000 I1.000 J0.000 F570.000 
G3 X-68.500 Y-172.500 Z-4.500 I-1.000 J0.000 F570.000 
G3 X-66.500 Y-172.500 Z-5.000 I1.000 J0.000 F570.000 
G3 X-68.500 Y-172.500 Z-5.500 I-1.000 J0.000 F570.000 
G3 X-66.500 Y-172.500 Z-6.000 I1.000 J0.000 F570.000 
G3 X-68.500 Y-172.500 Z-6.500 I-1.000 J0.000 F570.000 
G3 X-66.500 Y-172.500 Z-7.000 I1.000 J0.000 F570.000 
G3 X-68.500 Y-172.500 Z-7.500 I-1.000 J0.000 F570.000 
G3 X-66.500 Y-172.500 Z-8.000 I1.000 J0.000 F570.000 
G3 X-68.500 Y-172.500 Z-8.500 I-1.000 J0.000 F570.000 
G3 X-66.500 Y-172.500 Z-9.000 I1.000 J0.000 F570.000 
G3 X-68.500 Y-172.500 Z-9.500 I-1.000 J0.000 F570.000 
G3 X-66.500 Y-172.500 Z-10.000 I1.000 J0.000 F570.000 
G3 X-68.500 Y-172.500 Z-10.500 I-1.000 J0.000 F570.000 
G3 X-66.500 Y-172.500 Z-11.000 I1.000 J0.000 F570.000 
G3 X-68.500 Y-172.500 Z-11.500 I-1.000 J0.000 F570.000 
G3 X-66.500 Y-172.500 Z-12.000 I1.000 J0.000 F570.000 
G3 X-68.500 Y-172.500 Z-12.500 I-1.000 J0.000 F570.000 
G3 X-66.500 Y-172.500 Z-13.000 I1.000 J0.000 F570.000 
G3 X-68.500 Y-172.500 Z-13.500 I-1.000 J0.000 F570.000 
G3 X-66.500 Y-172.500 Z-14.000 I1.000 J0.000 F570.000 
G3 X-68.500 Y-172.500 Z-14.500 I-1.000 J0.000 F570.000 
G3 X-66.500 Y-172.500 Z-15.000 I1.000 J0.000 F570.000 
G3 X-68.500 Y-172.500 Z-15.500 I-1.000 J0.000 F570.000 
G3 X-66.500 Y-172.500 Z-16.000 I1.000 J0.000 F570.000 
G3 X-68.500 Y-172.500 Z-16.000 I-1.000 J0.000 F570.000 
G3 X-66.500 Y-172.500 Z-16.000 I1.000 J0.000 F570.000 
G0 Z3.000 
G0 X-66.500 Y-132.500 
G0 Z3.000 
G1 Z0.000 F56.500 
G3 X-68.500 Y-132.500 Z-0.500 I-1.000 J0.000 F570.000 
G3 X-66.500 Y-132.500 Z-1.000 I1.000 J0.000 F570.000 
G3 X-68.500 Y-132.500 Z-1.500 I-1.000 J0.000 F570.000 
G3 X-66.500 Y-132.500 Z-2.000 I1.000 J0.000 F570.000 
G3 X-68.500 Y-132.500 Z-2.500 I-1.000 J0.000 F570.000 
G3 X-66.500 Y-132.500 Z-3.000 I1.000 J0.000 F570.000 
G3 X-68.500 Y-132.500 Z-3.500 I-1.000 J0.000 F570.000 
G3 X-66.500 Y-132.500 Z-4.000 I1.000 J0.000 F570.000 
G3 X-68.500 Y-132.500 Z-4.500 I-1.000 J0.000 F570.000 
G3 X-66.500 Y-132.500 Z-5.000 I1.000 J0.000 F570.000 
G3 X-68.500 Y-132.500 Z-5.500 I-1.000 J0.000 F570.000 
G3 X-66.500 Y-132.500 Z-6.000 I1.000 J0.000 F570.000 
G3 X-68.500 Y-132.500 Z-6.500 I-1.000 J0.000 F570.000 
G3 X-66.500 Y-132.500 Z-7.000 I1.000 J0.000 F570.000 
G3 X-68.500 Y-132.500 Z-7.500 I-1.000 J0.000 F570.000 
G3 X-66.500 Y-132.500 Z-8.000 I1.000 J0.000 F570.000 
G3 X-68.500 Y-132.500 Z-8.500 I-1.000 J0.000 F570.000 
G3 X-66.500 Y-132.500 Z-9.000 I1.000 J0.000 F570.000 
G3 X-68.500 Y-132.500 Z-9.500 I-1.000 J0.000 F570.000 
G3 X-66.500 Y-132.500 Z-10.000 I1.000 J0.000 F570.000 
G3 X-68.500 Y-132.500 Z-10.500 I-1.000 J0.000 F570.000 
G3 X-66.500 Y-132.500 Z-11.000 I1.000 J0.000 F570.000 
G3 X-68.500 Y-132.500 Z-11.500 I-1.000 J0.000 F570.000 
G3 X-66.500 Y-132.500 Z-12.000 I1.000 J0.000 F570.000 
G3 X-68.500 Y-132.500 Z-12.500 I-1.000 J0.000 F570.000 
G3 X-66.500 Y-132.500 Z-13.000 I1.000 J0.000 F570.000 
G3 X-68.500 Y-132.500 Z-13.500 I-1.000 J0.000 F570.000 
G3 X-66.500 Y-132.500 Z-14.000 I1.000 J0.000 F570.000 
G3 X-68.500 Y-132.500 Z-14.500 I-1.000 J0.000 F570.000 
G3 X-66.500 Y-132.500 Z-15.000 I1.000 J0.000 F570.000 
G3 X-68.500 Y-132.500 Z-15.500 I-1.000 J0.000 F570.000 
G3 X-66.500 Y-132.500 Z-16.000 I1.000 J0.000 F570.000 
G3 X-68.500 Y-132.500 Z-16.000 I-1.000 J0.000 F570.000 
G3 X-66.500 Y-132.500 Z-16.000 I1.000 J0.000 F570.000 
G0 Z3.000 
G0 X-46.500 Y-112.500 
G0 Z3.000 
G1 Z0.000 F56.500 
G3 X-48.500 Y-112.500 Z-0.500 I-1.000 J0.000 F570.000 
G3 X-46.500 Y-112.500 Z-1.000 I1.000 J0.000 F570.000 
G3 X-48.500 Y-112.500 Z-1.500 I-1.000 J0.000 F570.000 
G3 X-46.500 Y-112.500 Z-2.000 I1.000 J0.000 F570.000 
G3 X-48.500 Y-112.500 Z-2.500 I-1.000 J0.000 F570.000 
G3 X-46.500 Y-112.500 Z-3.000 I1.000 J0.000 F570.000 
G3 X-48.500 Y-112.500 Z-3.500 I-1.000 J0.000 F570.000 
G3 X-46.500 Y-112.500 Z-4.000 I1.000 J0.000 F570.000 
G3 X-48.500 Y-112.500 Z-4.500 I-1.000 J0.000 F570.000 
G3 X-46.500 Y-112.500 Z-5.000 I1.000 J0.000 F570.000 
G3 X-48.500 Y-112.500 Z-5.500 I-1.000 J0.000 F570.000 
G3 X-46.500 Y-112.500 Z-6.000 I1.000 J0.000 F570.000 
G3 X-48.500 Y-112.500 Z-6.500 I-1.000 J0.000 F570.000 
G3 X-46.500 Y-112.500 Z-7.000 I1.000 J0.000 F570.000 
G3 X-48.500 Y-112.500 Z-7.500 I-1.000 J0.000 F570.000 
G3 X-46.500 Y-112.500 Z-8.000 I1.000 J0.000 F570.000 
G3 X-48.500 Y-112.500 Z-8.500 I-1.000 J0.000 F570.000 
G3 X-46.500 Y-112.500 Z-9.000 I1.000 J0.000 F570.000 
G3 X-48.500 Y-112.500 Z-9.500 I-1.000 J0.000 F570.000 
G3 X-46.500 Y-112.500 Z-10.000 I1.000 J0.000 F570.000 
G3 X-48.500 Y-112.500 Z-10.500 I-1.000 J0.000 F570.000 
G3 X-46.500 Y-112.500 Z-11.000 I1.000 J0.000 F570.000 
G3 X-48.500 Y-112.500 Z-11.500 I-1.000 J0.000 F570.000 
G3 X-46.500 Y-112.500 Z-12.000 I1.000 J0.000 F570.000 
G3 X-48.500 Y-112.500 Z-12.500 I-1.000 J0.000 F570.000 
G3 X-46.500 Y-112.500 Z-13.000 I1.000 J0.000 F570.000 
G3 X-48.500 Y-112.500 Z-13.500 I-1.000 J0.000 F570.000 
G3 X-46.500 Y-112.500 Z-14.000 I1.000 J0.000 F570.000 
G3 X-48.500 Y-112.500 Z-14.500 I-1.000 J0.000 F570.000 
G3 X-46.500 Y-112.500 Z-15.000 I1.000 J0.000 F570.000 
G3 X-48.500 Y-112.500 Z-15.500 I-1.000 J0.000 F570.000 
G3 X-46.500 Y-112.500 Z-16.000 I1.000 J0.000 F570.000 
G3 X-48.500 Y-112.500 Z-16.000 I-1.000 J0.000 F570.000 
G3 X-46.500 Y-112.500 Z-16.000 I1.000 J0.000 F570.000 
G0 Z3.000 
G0 X-66.500 Y-92.500 
G0 Z3.000 
G1 Z0.000 F56.500 
G3 X-68.500 Y-92.500 Z-0.500 I-1.000 J0.000 F570.000 
G3 X-66.500 Y-92.500 Z-1.000 I1.000 J0.000 F570.000 
G3 X-68.500 Y-92.500 Z-1.500 I-1.000 J0.000 F570.000 
G3 X-66.500 Y-92.500 Z-2.000 I1.000 J0.000 F570.000 
G3 X-68.500 Y-92.500 Z-2.500 I-1.000 J0.000 F570.000 
G3 X-66.500 Y-92.500 Z-3.000 I1.000 J0.000 F570.000 
G3 X-68.500 Y-92.500 Z-3.500 I-1.000 J0.000 F570.000 
G3 X-66.500 Y-92.500 Z-4.000 I1.000 J0.000 F570.000 
G3 X-68.500 Y-92.500 Z-4.500 I-1.000 J0.000 F570.000 
G3 X-66.500 Y-92.500 Z-5.000 I1.000 J0.000 F570.000 
G3 X-68.500 Y-92.500 Z-5.500 I-1.000 J0.000 F570.000 
G3 X-66.500 Y-92.500 Z-6.000 I1.000 J0.000 F570.000 
G3 X-68.500 Y-92.500 Z-6.500 I-1.000 J0.000 F570.000 
G3 X-66.500 Y-92.500 Z-7.000 I1.000 J0.000 F570.000 
G3 X-68.500 Y-92.500 Z-7.500 I-1.000 J0.000 F570.000 
G3 X-66.500 Y-92.500 Z-8.000 I1.000 J0.000 F570.000 
G3 X-68.500 Y-92.500 Z-8.500 I-1.000 J0.000 F570.000 
G3 X-66.500 Y-92.500 Z-9.000 I1.000 J0.000 F570.000 
G3 X-68.500 Y-92.500 Z-9.500 I-1.000 J0.000 F570.000 
G3 X-66.500 Y-92.500 Z-10.000 I1.000 J0.000 F570.000 
G3 X-68.500 Y-92.500 Z-10.500 I-1.000 J0.000 F570.000 
G3 X-66.500 Y-92.500 Z-11.000 I1.000 J0.000 F570.000 
G3 X-68.500 Y-92.500 Z-11.500 I-1.000 J0.000 F570.000 
G3 X-66.500 Y-92.500 Z-12.000 I1.000 J0.000 F570.000 
G3 X-68.500 Y-92.500 Z-12.500 I-1.000 J0.000 F570.000 
G3 X-66.500 Y-92.500 Z-13.000 I1.000 J0.000 F570.000 
G3 X-68.500 Y-92.500 Z-13.500 I-1.000 J0.000 F570.000 
G3 X-66.500 Y-92.500 Z-14.000 I1.000 J0.000 F570.000 
G3 X-68.500 Y-92.500 Z-14.500 I-1.000 J0.000 F570.000 
G3 X-66.500 Y-92.500 Z-15.000 I1.000 J0.000 F570.000 
G3 X-68.500 Y-92.500 Z-15.500 I-1.000 J0.000 F570.000 
G3 X-66.500 Y-92.500 Z-16.000 I1.000 J0.000 F570.000 
G3 X-68.500 Y-92.500 Z-16.000 I-1.000 J0.000 F570.000 
G3 X-66.500 Y-92.500 Z-16.000 I1.000 J0.000 F570.000 
G0 Z3.000 
G0 X-46.500 Y-72.500 
G0 Z3.000 
G1 Z0.000 F56.500 
G3 X-48.500 Y-72.500 Z-0.500 I-1.000 J0.000 F570.000 
G3 X-46.500 Y-72.500 Z-1.000 I1.000 J0.000 F570.000 
G3 X-48.500 Y-72.500 Z-1.500 I-1.000 J0.000 F570.000 
G3 X-46.500 Y-72.500 Z-2.000 I1.000 J0.000 F570.000 
G3 X-48.500 Y-72.500 Z-2.500 I-1.000 J0.000 F570.000 
G3 X-46.500 Y-72.500 Z-3.000 I1.000 J0.000 F570.000 
G3 X-48.500 Y-72.500 Z-3.500 I-1.000 J0.000 F570.000 
G3 X-46.500 Y-72.500 Z-4.000 I1.000 J0.000 F570.000 
G3 X-48.500 Y-72.500 Z-4.500 I-1.000 J0.000 F570.000 
G3 X-46.500 Y-72.500 Z-5.000 I1.000 J0.000 F570.000 
G3 X-48.500 Y-72.500 Z-5.500 I-1.000 J0.000 F570.000 
G3 X-46.500 Y-72.500 Z-6.000 I1.000 J0.000 F570.000 
G3 X-48.500 Y-72.500 Z-6.500 I-1.000 J0.000 F570.000 
G3 X-46.500 Y-72.500 Z-7.000 I1.000 J0.000 F570.000 
G3 X-48.500 Y-72.500 Z-7.500 I-1.000 J0.000 F570.000 
G3 X-46.500 Y-72.500 Z-8.000 I1.000 J0.000 F570.000 
G3 X-48.500 Y-72.500 Z-8.500 I-1.000 J0.000 F570.000 
G3 X-46.500 Y-72.500 Z-9.000 I1.000 J0.000 F570.000 
G3 X-48.500 Y-72.500 Z-9.500 I-1.000 J0.000 F570.000 
G3 X-46.500 Y-72.500 Z-10.000 I1.000 J0.000 F570.000 
G3 X-48.500 Y-72.500 Z-10.500 I-1.000 J0.000 F570.000 
G3 X-46.500 Y-72.500 Z-11.000 I1.000 J0.000 F570.000 
G3 X-48.500 Y-72.500 Z-11.500 I-1.000 J0.000 F570.000 
G3 X-46.500 Y-72.500 Z-12.000 I1.000 J0.000 F570.000 
G3 X-48.500 Y-72.500 Z-12.500 I-1.000 J0.000 F570.000 
G3 X-46.500 Y-72.500 Z-13.000 I1.000 J0.000 F570.000 
G3 X-48.500 Y-72.500 Z-13.500 I-1.000 J0.000 F570.000 
G3 X-46.500 Y-72.500 Z-14.000 I1.000 J0.000 F570.000 
G3 X-48.500 Y-72.500 Z-14.500 I-1.000 J0.000 F570.000 
G3 X-46.500 Y-72.500 Z-15.000 I1.000 J0.000 F570.000 
G3 X-48.500 Y-72.500 Z-15.500 I-1.000 J0.000 F570.000 
G3 X-46.500 Y-72.500 Z-16.000 I1.000 J0.000 F570.000 
G3 X-48.500 Y-72.500 Z-16.000 I-1.000 J0.000 F570.000 
G3 X-46.500 Y-72.500 Z-16.000 I1.000 J0.000 F570.000 
G0 Z3.000 
G0 X-66.500 Y-52.500 
G0 Z3.000 
G1 Z0.000 F56.500 
G3 X-68.500 Y-52.500 Z-0.500 I-1.000 J0.000 F570.000 
G3 X-66.500 Y-52.500 Z-1.000 I1.000 J0.000 F570.000 
G3 X-68.500 Y-52.500 Z-1.500 I-1.000 J0.000 F570.000 
G3 X-66.500 Y-52.500 Z-2.000 I1.000 J0.000 F570.000 
G3 X-68.500 Y-52.500 Z-2.500 I-1.000 J0.000 F570.000 
G3 X-66.500 Y-52.500 Z-3.000 I1.000 J0.000 F570.000 
G3 X-68.500 Y-52.500 Z-3.500 I-1.000 J0.000 F570.000 
G3 X-66.500 Y-52.500 Z-4.000 I1.000 J0.000 F570.000 
G3 X-68.500 Y-52.500 Z-4.500 I-1.000 J0.000 F570.000 
G3 X-66.500 Y-52.500 Z-5.000 I1.000 J0.000 F570.000 
G3 X-68.500 Y-52.500 Z-5.500 I-1.000 J0.000 F570.000 
G3 X-66.500 Y-52.500 Z-6.000 I1.000 J0.000 F570.000 
G3 X-68.500 Y-52.500 Z-6.500 I-1.000 J0.000 F570.000 
G3 X-66.500 Y-52.500 Z-7.000 I1.000 J0.000 F570.000 
G3 X-68.500 Y-52.500 Z-7.500 I-1.000 J0.000 F570.000 
G3 X-66.500 Y-52.500 Z-8.000 I1.000 J0.000 F570.000 
G3 X-68.500 Y-52.500 Z-8.500 I-1.000 J0.000 F570.000 
G3 X-66.500 Y-52.500 Z-9.000 I1.000 J0.000 F570.000 
G3 X-68.500 Y-52.500 Z-9.500 I-1.000 J0.000 F570.000 
G3 X-66.500 Y-52.500 Z-10.000 I1.000 J0.000 F570.000 
G3 X-68.500 Y-52.500 Z-10.500 I-1.000 J0.000 F570.000 
G3 X-66.500 Y-52.500 Z-11.000 I1.000 J0.000 F570.000 
G3 X-68.500 Y-52.500 Z-11.500 I-1.000 J0.000 F570.000 
G3 X-66.500 Y-52.500 Z-12.000 I1.000 J0.000 F570.000 
G3 X-68.500 Y-52.500 Z-12.500 I-1.000 J0.000 F570.000 
G3 X-66.500 Y-52.500 Z-13.000 I1.000 J0.000 F570.000 
G3 X-68.500 Y-52.500 Z-13.500 I-1.000 J0.000 F570.000 
G3 X-66.500 Y-52.500 Z-14.000 I1.000 J0.000 F570.000 
G3 X-68.500 Y-52.500 Z-14.500 I-1.000 J0.000 F570.000 
G3 X-66.500 Y-52.500 Z-15.000 I1.000 J0.000 F570.000 
G3 X-68.500 Y-52.500 Z-15.500 I-1.000 J0.000 F570.000 
G3 X-66.500 Y-52.500 Z-16.000 I1.000 J0.000 F570.000 
G3 X-68.500 Y-52.500 Z-16.000 I-1.000 J0.000 F570.000 
G3 X-66.500 Y-52.500 Z-16.000 I1.000 J0.000 F570.000 
G0 Z3.000 
G0 X-46.500 Y-32.500 
G0 Z3.000 
G1 Z0.000 F56.500 
G3 X-48.500 Y-32.500 Z-0.500 I-1.000 J0.000 F570.000 
G3 X-46.500 Y-32.500 Z-1.000 I1.000 J0.000 F570.000 
G3 X-48.500 Y-32.500 Z-1.500 I-1.000 J0.000 F570.000 
G3 X-46.500 Y-32.500 Z-2.000 I1.000 J0.000 F570.000 
G3 X-48.500 Y-32.500 Z-2.500 I-1.000 J0.000 F570.000 
G3 X-46.500 Y-32.500 Z-3.000 I1.000 J0.000 F570.000 
G3 X-48.500 Y-32.500 Z-3.500 I-1.000 J0.000 F570.000 
G3 X-46.500 Y-32.500 Z-4.000 I1.000 J0.000 F570.000 
G3 X-48.500 Y-32.500 Z-4.500 I-1.000 J0.000 F570.000 
G3 X-46.500 Y-32.500 Z-5.000 I1.000 J0.000 F570.000 
G3 X-48.500 Y-32.500 Z-5.500 I-1.000 J0.000 F570.000 
G3 X-46.500 Y-32.500 Z-6.000 I1.000 J0.000 F570.000 
G3 X-48.500 Y-32.500 Z-6.500 I-1.000 J0.000 F570.000 
G3 X-46.500 Y-32.500 Z-7.000 I1.000 J0.000 F570.000 
G3 X-48.500 Y-32.500 Z-7.500 I-1.000 J0.000 F570.000 
G3 X-46.500 Y-32.500 Z-8.000 I1.000 J0.000 F570.000 
G3 X-48.500 Y-32.500 Z-8.500 I-1.000 J0.000 F570.000 
G3 X-46.500 Y-32.500 Z-9.000 I1.000 J0.000 F570.000 
G3 X-48.500 Y-32.500 Z-9.500 I-1.000 J0.000 F570.000 
G3 X-46.500 Y-32.500 Z-10.000 I1.000 J0.000 F570.000 
G3 X-48.500 Y-32.500 Z-10.500 I-1.000 J0.000 F570.000 
G3 X-46.500 Y-32.500 Z-11.000 I1.000 J0.000 F570.000 
G3 X-48.500 Y-32.500 Z-11.500 I-1.000 J0.000 F570.000 
G3 X-46.500 Y-32.500 Z-12.000 I1.000 J0.000 F570.000 
G3 X-48.500 Y-32.500 Z-12.500 I-1.000 J0.000 F570.000 
G3 X-46.500 Y-32.500 Z-13.000 I1.000 J0.000 F570.000 
G3 X-48.500 Y-32.500 Z-13.500 I-1.000 J0.000 F570.000 
G3 X-46.500 Y-32.500 Z-14.000 I1.000 J0.000 F570.000 
G3 X-48.500 Y-32.500 Z-14.500 I-1.000 J0.000 F570.000 
G3 X-46.500 Y-32.500 Z-15.000 I1.000 J0.000 F570.000 
G3 X-48.500 Y-32.500 Z-15.500 I-1.000 J0.000 F570.000 
G3 X-46.500 Y-32.500 Z-16.000 I1.000 J0.000 F570.000 
G3 X-48.500 Y-32.500 Z-16.000 I-1.000 J0.000 F570.000 
G3 X-46.500 Y-32.500 Z-16.000 I1.000 J0.000 F570.000 
G0 Z3.000 
G0 X-66.500 Y-12.500 
G0 Z3.000 
G1 Z0.000 F56.500 
G3 X-68.500 Y-12.500 Z-0.500 I-1.000 J0.000 F570.000 
G3 X-66.500 Y-12.500 Z-1.000 I1.000 J0.000 F570.000 
G3 X-68.500 Y-12.500 Z-1.500 I-1.000 J0.000 F570.000 
G3 X-66.500 Y-12.500 Z-2.000 I1.000 J0.000 F570.000 
G3 X-68.500 Y-12.500 Z-2.500 I-1.000 J0.000 F570.000 
G3 X-66.500 Y-12.500 Z-3.000 I1.000 J0.000 F570.000 
G3 X-68.500 Y-12.500 Z-3.500 I-1.000 J0.000 F570.000 
G3 X-66.500 Y-12.500 Z-4.000 I1.000 J0.000 F570.000 
G3 X-68.500 Y-12.500 Z-4.500 I-1.000 J0.000 F570.000 
G3 X-66.500 Y-12.500 Z-5.000 I1.000 J0.000 F570.000 
G3 X-68.500 Y-12.500 Z-5.500 I-1.000 J0.000 F570.000 
G3 X-66.500 Y-12.500 Z-6.000 I1.000 J0.000 F570.000 
G3 X-68.500 Y-12.500 Z-6.500 I-1.000 J0.000 F570.000 
G3 X-66.500 Y-12.500 Z-7.000 I1.000 J0.000 F570.000 
G3 X-68.500 Y-12.500 Z-7.500 I-1.000 J0.000 F570.000 
G3 X-66.500 Y-12.500 Z-8.000 I1.000 J0.000 F570.000 
G3 X-68.500 Y-12.500 Z-8.500 I-1.000 J0.000 F570.000 
G3 X-66.500 Y-12.500 Z-9.000 I1.000 J0.000 F570.000 
G3 X-68.500 Y-12.500 Z-9.500 I-1.000 J0.000 F570.000 
G3 X-66.500 Y-12.500 Z-10.000 I1.000 J0.000 F570.000 
G3 X-68.500 Y-12.500 Z-10.500 I-1.000 J0.000 F570.000 
G3 X-66.500 Y-12.500 Z-11.000 I1.000 J0.000 F570.000 
G3 X-68.500 Y-12.500 Z-11.500 I-1.000 J0.000 F570.000 
G3 X-66.500 Y-12.500 Z-12.000 I1.000 J0.000 F570.000 
G3 X-68.500 Y-12.500 Z-12.500 I-1.000 J0.000 F570.000 
G3 X-66.500 Y-12.500 Z-13.000 I1.000 J0.000 F570.000 
G3 X-68.500 Y-12.500 Z-13.500 I-1.000 J0.000 F570.000 
G3 X-66.500 Y-12.500 Z-14.000 I1.000 J0.000 F570.000 
G3 X-68.500 Y-12.500 Z-14.500 I-1.000 J0.000 F570.000 
G3 X-66.500 Y-12.500 Z-15.000 I1.000 J0.000 F570.000 
G3 X-68.500 Y-12.500 Z-15.500 I-1.000 J0.000 F570.000 
G3 X-66.500 Y-12.500 Z-16.000 I1.000 J0.000 F570.000 
G3 X-68.500 Y-12.500 Z-16.000 I-1.000 J0.000 F570.000 
G3 X-66.500 Y-12.500 Z-16.000 I1.000 J0.000 F570.000 
G0 Z3.000 
G0 Z5.000 
(finish operation: Helix)
(begin operation: TC: threadmill)
(machine units: mm/min)
(TC: threadmill) 
M5
M6 T5 
G43 H5 
M3 S1600 
(finish operation: TC: threadmill)
(begin operation: Thread_Milling)
(machine units: mm/min)
(Thread_Milling) 
(Begin Thread Milling) 
G0 Z5.000 
G0 X-7.500 Y-12.500 
G0 Z-16.000 
G3 Y-11.736 J0.382 F145.800 
G3 Y-13.264 Z-15.375 J-0.764 F145.800 
G3 Y-11.736 Z-14.750 J0.764 F145.800 
G3 Y-13.264 Z-14.125 J-0.764 F145.800 
G3 Y-11.736 Z-13.500 J0.764 F145.800 
G3 Y-13.264 Z-12.875 J-0.764 F145.800 
G3 Y-11.736 Z-12.250 J0.764 F145.800 
G3 Y-13.264 Z-11.625 J-0.764 F145.800 
G3 Y-11.736 Z-11.000 J0.764 F145.800 
G3 Y-13.264 Z-10.375 J-0.764 F145.800 
G3 Y-11.736 Z-9.750 J0.764 F145.800 
G3 Y-13.264 Z-9.125 J-0.764 F145.800 
G3 Y-11.736 Z-8.500 J0.764 F145.800 
G3 Y-13.264 Z-7.875 J-0.764 F145.800 
G3 Y-11.736 Z-7.250 J0.764 F145.800 
G3 Y-13.264 Z-6.625 J-0.764 F145.800 
G3 Y-11.736 Z-6.000 J0.764 F145.800 
G3 Y-13.264 Z-5.375 J-0.764 F145.800 
G3 Y-11.736 Z-4.750 J0.764 F145.800 
G3 Y-13.264 Z-4.125 J-0.764 F145.800 
G3 Y-11.736 Z-3.500 J0.764 F145.800 
G3 Y-13.264 Z-2.875 J-0.764 F145.800 
G3 Y-11.736 Z-2.250 J0.764 F145.800 
G3 Y-13.264 Z-1.625 J-0.764 F145.800 
G3 Y-11.736 Z-1.000 J0.764 F145.800 
G3 Y-13.264 Z-0.375 J-0.764 F145.800 
G3 X-6.774 Y-12.264 Z0.000 J0.764 F145.800 
G3 X-7.500 Y-12.500 I-0.363 J-0.118 F145.800 
G0 X-7.500 Y-12.500 
G0 Z-16.000 
G3 Y-11.363 J0.569 F145.800 
G3 Y-13.637 Z-15.375 J-1.137 F145.800 
G3 Y-11.363 Z-14.750 J1.137 F145.800 
G3 Y-13.637 Z-14.125 J-1.137 F145.800 
G3 Y-11.363 Z-13.500 J1.137 F145.800 
G3 Y-13.637 Z-12.875 J-1.137 F145.800 
G3 Y-11.363 Z-12.250 J1.137 F145.800 
G3 Y-13.637 Z-11.625 J-1.137 F145.800 
G3 Y-11.363 Z-11.000 J1.137 F145.800 
G3 Y-13.637 Z-10.375 J-1.137 F145.800 
G3 Y-11.363 Z-9.750 J1.137 F145.800 
G3 Y-13.637 Z-9.125 J-1.137 F145.800 
G3 Y-11.363 Z-8.500 J1.137 F145.800 
G3 Y-13.637 Z-7.875 J-1.137 F145.800 
G3 Y-11.363 Z-7.250 J1.137 F145.800 
G3 Y-13.637 Z-6.625 J-1.137 F145.800 
G3 Y-11.363 Z-6.000 J1.137 F145.800 
G3 Y-13.637 Z-5.375 J-1.137 F145.800 
G3 Y-11.363 Z-4.750 J1.137 F145.800 
G3 Y-13.637 Z-4.125 J-1.137 F145.800 
G3 Y-11.363 Z-3.500 J1.137 F145.800 
G3 Y-13.637 Z-2.875 J-1.137 F145.800 
G3 Y-11.363 Z-2.250 J1.137 F145.800 
G3 Y-13.637 Z-1.625 J-1.137 F145.800 
G3 Y-11.363 Z-1.000 J1.137 F145.800 
G3 Y-13.637 Z-0.375 J-1.137 F145.800 
G3 X-6.418 Y-12.149 Z0.000 J1.137 F145.800 
G3 X-7.500 Y-12.500 I-0.541 J-0.176 F145.800 
G0 Z5.000 
G0 Z5.000 
G0 X-7.500 Y-52.500 
G0 Z-16.000 
G3 Y-51.736 J0.382 F145.800 
G3 Y-53.264 Z-15.375 J-0.764 F145.800 
G3 Y-51.736 Z-14.750 J0.764 F145.800 
G3 Y-53.264 Z-14.125 J-0.764 F145.800 
G3 Y-51.736 Z-13.500 J0.764 F145.800 
G3 Y-53.264 Z-12.875 J-0.764 F145.800 
G3 Y-51.736 Z-12.250 J0.764 F145.800 
G3 Y-53.264 Z-11.625 J-0.764 F145.800 
G3 Y-51.736 Z-11.000 J0.764 F145.800 
G3 Y-53.264 Z-10.375 J-0.764 F145.800 
G3 Y-51.736 Z-9.750 J0.764 F145.800 
G3 Y-53.264 Z-9.125 J-0.764 F145.800 
G3 Y-51.736 Z-8.500 J0.764 F145.800 
G3 Y-53.264 Z-7.875 J-0.764 F145.800 
G3 Y-51.736 Z-7.250 J0.764 F145.800 
G3 Y-53.264 Z-6.625 J-0.764 F145.800 
G3 Y-51.736 Z-6.000 J0.764 F145.800 
G3 Y-53.264 Z-5.375 J-0.764 F145.800 
G3 Y-51.736 Z-4.750 J0.764 F145.800 
G3 Y-53.264 Z-4.125 J-0.764 F145.800 
G3 Y-51.736 Z-3.500 J0.764 F145.800 
G3 Y-53.264 Z-2.875 J-0.764 F145.800 
G3 Y-51.736 Z-2.250 J0.764 F145.800 
G3 Y-53.264 Z-1.625 J-0.764 F145.800 
G3 Y-51.736 Z-1.000 J0.764 F145.800 
G3 Y-53.264 Z-0.375 J-0.764 F145.800 
G3 X-6.774 Y-52.264 Z0.000 J0.764 F145.800 
G3 X-7.500 Y-52.500 I-0.363 J-0.118 F145.800 
G0 X-7.500 Y-52.500 
G0 Z-16.000 
G3 Y-51.363 J0.569 F145.800 
G3 Y-53.637 Z-15.375 J-1.137 F145.800 
G3 Y-51.363 Z-14.750 J1.137 F145.800 
G3 Y-53.637 Z-14.125 J-1.137 F145.800 
G3 Y-51.363 Z-13.500 J1.137 F145.800 
G3 Y-53.637 Z-12.875 J-1.137 F145.800 
G3 Y-51.363 Z-12.250 J1.137 F145.800 
G3 Y-53.637 Z-11.625 J-1.137 F145.800 
G3 Y-51.363 Z-11.000 J1.137 F145.800 
G3 Y-53.637 Z-10.375 J-1.137 F145.800 
G3 Y-51.363 Z-9.750 J1.137 F145.800 
G3 Y-53.637 Z-9.125 J-1.137 F145.800 
G3 Y-51.363 Z-8.500 J1.137 F145.800 
G3 Y-53.637 Z-7.875 J-1.137 F145.800 
G3 Y-51.363 Z-7.250 J1.137 F145.800 
G3 Y-53.637 Z-6.625 J-1.137 F145.800 
G3 Y-51.363 Z-6.000 J1.137 F145.800 
G3 Y-53.637 Z-5.375 J-1.137 F145.800 
G3 Y-51.363 Z-4.750 J1.137 F145.800 
G3 Y-53.637 Z-4.125 J-1.137 F145.800 
G3 Y-51.363 Z-3.500 J1.137 F145.800 
G3 Y-53.637 Z-2.875 J-1.137 F145.800 
G3 Y-51.363 Z-2.250 J1.137 F145.800 
G3 Y-53.637 Z-1.625 J-1.137 F145.800 
G3 Y-51.363 Z-1.000 J1.137 F145.800 
G3 Y-53.637 Z-0.375 J-1.137 F145.800 
G3 X-6.418 Y-52.149 Z0.000 J1.137 F145.800 
G3 X-7.500 Y-52.500 I-0.541 J-0.176 F145.800 
G0 Z5.000 
G0 Z5.000 
G0 X-7.500 Y-92.500 
G0 Z-16.000 
G3 Y-91.736 J0.382 F145.800 
G3 Y-93.264 Z-15.375 J-0.764 F145.800 
G3 Y-91.736 Z-14.750 J0.764 F145.800 
G3 Y-93.264 Z-14.125 J-0.764 F145.800 
G3 Y-91.736 Z-13.500 J0.764 F145.800 
G3 Y-93.264 Z-12.875 J-0.764 F145.800 
G3 Y-91.736 Z-12.250 J0.764 F145.800 
G3 Y-93.264 Z-11.625 J-0.764 F145.800 
G3 Y-91.736 Z-11.000 J0.764 F145.800 
G3 Y-93.264 Z-10.375 J-0.764 F145.800 
G3 Y-91.736 Z-9.750 J0.764 F145.800 
G3 Y-93.264 Z-9.125 J-0.764 F145.800 
G3 Y-91.736 Z-8.500 J0.764 F145.800 
G3 Y-93.264 Z-7.875 J-0.764 F145.800 
G3 Y-91.736 Z-7.250 J0.764 F145.800 
G3 Y-93.264 Z-6.625 J-0.764 F145.800 
G3 Y-91.736 Z-6.000 J0.764 F145.800 
G3 Y-93.264 Z-5.375 J-0.764 F145.800 
G3 Y-91.736 Z-4.750 J0.764 F145.800 
G3 Y-93.264 Z-4.125 J-0.764 F145.800 
G3 Y-91.736 Z-3.500 J0.764 F145.800 
G3 Y-93.264 Z-2.875 J-0.764 F145.800 
G3 Y-91.736 Z-2.250 J0.764 F145.800 
G3 Y-93.264 Z-1.625 J-0.764 F145.800 
G3 Y-91.736 Z-1.000 J0.764 F145.800 
G3 Y-93.264 Z-0.375 J-0.764 F145.800 
G3 X-6.774 Y-92.264 Z0.000 J0.764 F145.800 
G3 X-7.500 Y-92.500 I-0.363 J-0.118 F145.800 
G0 X-7.500 Y-92.500 
G0 Z-16.000 
G3 Y-91.363 J0.569 F145.800 
G3 Y-93.637 Z-15.375 J-1.137 F145.800 
G3 Y-91.363 Z-14.750 J1.137 F145.800 
G3 Y-93.637 Z-14.125 J-1.137 F145.800 
G3 Y-91.363 Z-13.500 J1.137 F145.800 
G3 Y-93.637 Z-12.875 J-1.137 F145.800 
G3 Y-91.363 Z-12.250 J1.137 F145.800 
G3 Y-93.637 Z-11.625 J-1.137 F145.800 
G3 Y-91.363 Z-11.000 J1.137 F145.800 
G3 Y-93.637 Z-10.375 J-1.137 F145.800 
G3 Y-91.363 Z-9.750 J1.137 F145.800 
G3 Y-93.637 Z-9.125 J-1.137 F145.800 
G3 Y-91.363 Z-8.500 J1.137 F145.800 
G3 Y-93.637 Z-7.875 J-1.137 F145.800 
G3 Y-91.363 Z-7.250 J1.137 F145.800 
G3 Y-93.637 Z-6.625 J-1.137 F145.800 
G3 Y-91.363 Z-6.000 J1.137 F145.800 
G3 Y-93.637 Z-5.375 J-1.137 F145.800 
G3 Y-91.363 Z-4.750 J1.137 F145.800 
G3 Y-93.637 Z-4.125 J-1.137 F145.800 
G3 Y-91.363 Z-3.500 J1.137 F145.800 
G3 Y-93.637 Z-2.875 J-1.137 F145.800 
G3 Y-91.363 Z-2.250 J1.137 F145.800 
G3 Y-93.637 Z-1.625 J-1.137 F145.800 
G3 Y-91.363 Z-1.000 J1.137 F145.800 
G3 Y-93.637 Z-0.375 J-1.137 F145.800 
G3 X-6.418 Y-92.149 Z0.000 J1.137 F145.800 
G3 X-7.500 Y-92.500 I-0.541 J-0.176 F145.800 
G0 Z5.000 
G0 Z5.000 
G0 X-7.500 Y-132.500 
G0 Z-16.000 
G3 Y-131.736 J0.382 F145.800 
G3 Y-133.264 Z-15.375 J-0.764 F145.800 
G3 Y-131.736 Z-14.750 J0.764 F145.800 
G3 Y-133.264 Z-14.125 J-0.764 F145.800 
G3 Y-131.736 Z-13.500 J0.764 F145.800 
G3 Y-133.264 Z-12.875 J-0.764 F145.800 
G3 Y-131.736 Z-12.250 J0.764 F145.800 
G3 Y-133.264 Z-11.625 J-0.764 F145.800 
G3 Y-131.736 Z-11.000 J0.764 F145.800 
G3 Y-133.264 Z-10.375 J-0.764 F145.800 
G3 Y-131.736 Z-9.750 J0.764 F145.800 
G3 Y-133.264 Z-9.125 J-0.764 F145.800 
G3 Y-131.736 Z-8.500 J0.764 F145.800 
G3 Y-133.264 Z-7.875 J-0.764 F145.800 
G3 Y-131.736 Z-7.250 J0.764 F145.800 
G3 Y-133.264 Z-6.625 J-0.764 F145.800 
G3 Y-131.736 Z-6.000 J0.764 F145.800 
G3 Y-133.264 Z-5.375 J-0.764 F145.800 
G3 Y-131.736 Z-4.750 J0.764 F145.800 
G3 Y-133.264 Z-4.125 J-0.764 F145.800 
G3 Y-131.736 Z-3.500 J0.764 F145.800 
G3 Y-133.264 Z-2.875 J-0.764 F145.800 
G3 Y-131.736 Z-2.250 J0.764 F145.800 
G3 Y-133.264 Z-1.625 J-0.764 F145.800 
G3 Y-131.736 Z-1.000 J0.764 F145.800 
G3 Y-133.264 Z-0.375 J-0.764 F145.800 
G3 X-6.774 Y-132.264 Z0.000 J0.764 F145.800 
G3 X-7.500 Y-132.500 I-0.363 J-0.118 F145.800 
G0 X-7.500 Y-132.500 
G0 Z-16.000 
G3 Y-131.363 J0.569 F145.800 
G3 Y-133.637 Z-15.375 J-1.137 F145.800 
G3 Y-131.363 Z-14.750 J1.137 F145.800 
G3 Y-133.637 Z-14.125 J-1.137 F145.800 
G3 Y-131.363 Z-13.500 J1.137 F145.800 
G3 Y-133.637 Z-12.875 J-1.137 F145.800 
G3 Y-131.363 Z-12.250 J1.137 F145.800 
G3 Y-133.637 Z-11.625 J-1.137 F145.800 
G3 Y-131.363 Z-11.000 J1.137 F145.800 
G3 Y-133.637 Z-10.375 J-1.137 F145.800 
G3 Y-131.363 Z-9.750 J1.137 F145.800 
G3 Y-133.637 Z-9.125 J-1.137 F145.800 
G3 Y-131.363 Z-8.500 J1.137 F145.800 
G3 Y-133.637 Z-7.875 J-1.137 F145.800 
G3 Y-131.363 Z-7.250 J1.137 F145.800 
G3 Y-133.637 Z-6.625 J-1.137 F145.800 
G3 Y-131.363 Z-6.000 J1.137 F145.800 
G3 Y-133.637 Z-5.375 J-1.137 F145.800 
G3 Y-131.363 Z-4.750 J1.137 F145.800 
G3 Y-133.637 Z-4.125 J-1.137 F145.800 
G3 Y-131.363 Z-3.500 J1.137 F145.800 
G3 Y-133.637 Z-2.875 J-1.137 F145.800 
G3 Y-131.363 Z-2.250 J1.137 F145.800 
G3 Y-133.637 Z-1.625 J-1.137 F145.800 
G3 Y-131.363 Z-1.000 J1.137 F145.800 
G3 Y-133.637 Z-0.375 J-1.137 F145.800 
G3 X-6.418 Y-132.149 Z0.000 J1.137 F145.800 
G3 X-7.500 Y-132.500 I-0.541 J-0.176 F145.800 
G0 Z5.000 
G0 Z5.000 
G0 X-7.500 Y-172.500 
G0 Z-16.000 
G3 Y-171.736 J0.382 F145.800 
G3 Y-173.264 Z-15.375 J-0.764 F145.800 
G3 Y-171.736 Z-14.750 J0.764 F145.800 
G3 Y-173.264 Z-14.125 J-0.764 F145.800 
G3 Y-171.736 Z-13.500 J0.764 F145.800 
G3 Y-173.264 Z-12.875 J-0.764 F145.800 
G3 Y-171.736 Z-12.250 J0.764 F145.800 
G3 Y-173.264 Z-11.625 J-0.764 F145.800 
G3 Y-171.736 Z-11.000 J0.764 F145.800 
G3 Y-173.264 Z-10.375 J-0.764 F145.800 
G3 Y-171.736 Z-9.750 J0.764 F145.800 
G3 Y-173.264 Z-9.125 J-0.764 F145.800 
G3 Y-171.736 Z-8.500 J0.764 F145.800 
G3 Y-173.264 Z-7.875 J-0.764 F145.800 
G3 Y-171.736 Z-7.250 J0.764 F145.800 
G3 Y-173.264 Z-6.625 J-0.764 F145.800 
G3 Y-171.736 Z-6.000 J0.764 F145.800 
G3 Y-173.264 Z-5.375 J-0.764 F145.800 
G3 Y-171.736 Z-4.750 J0.764 F145.800 
G3 Y-173.264 Z-4.125 J-0.764 F145.800 
G3 Y-171.736 Z-3.500 J0.764 F145.800 
G3 Y-173.264 Z-2.875 J-0.764 F145.800 
G3 Y-171.736 Z-2.250 J0.764 F145.800 
G3 Y-173.264 Z-1.625 J-0.764 F145.800 
G3 Y-171.736 Z-1.000 J0.764 F145.800 
G3 Y-173.264 Z-0.375 J-0.764 F145.800 
G3 X-6.774 Y-172.264 Z0.000 J0.764 F145.800 
G3 X-7.500 Y-172.500 I-0.363 J-0.118 F145.800 
G0 X-7.500 Y-172.500 
G0 Z-16.000 
G3 Y-171.363 J0.569 F145.800 
G3 Y-173.637 Z-15.375 J-1.137 F145.800 
G3 Y-171.363 Z-14.750 J1.137 F145.800 
G3 Y-173.637 Z-14.125 J-1.137 F145.800 
G3 Y-171.363 Z-13.500 J1.137 F145.800 
G3 Y-173.637 Z-12.875 J-1.137 F145.800 
G3 Y-171.363 Z-12.250 J1.137 F145.800 
G3 Y-173.637 Z-11.625 J-1.137 F145.800 
G3 Y-171.363 Z-11.000 J1.137 F145.800 
G3 Y-173.637 Z-10.375 J-1.137 F145.800 
G3 Y-171.363 Z-9.750 J1.137 F145.800 
G3 Y-173.637 Z-9.125 J-1.137 F145.800 
G3 Y-171.363 Z-8.500 J1.137 F145.800 
G3 Y-173.637 Z-7.875 J-1.137 F145.800 
G3 Y-171.363 Z-7.250 J1.137 F145.800 
G3 Y-173.637 Z-6.625 J-1.137 F145.800 
G3 Y-171.363 Z-6.000 J1.137 F145.800 
G3 Y-173.637 Z-5.375 J-1.137 F145.800 
G3 Y-171.363 Z-4.750 J1.137 F145.800 
G3 Y-173.637 Z-4.125 J-1.137 F145.800 
G3 Y-171.363 Z-3.500 J1.137 F145.800 
G3 Y-173.637 Z-2.875 J-1.137 F145.800 
G3 Y-171.363 Z-2.250 J1.137 F145.800 
G3 Y-173.637 Z-1.625 J-1.137 F145.800 
G3 Y-171.363 Z-1.000 J1.137 F145.800 
G3 Y-173.637 Z-0.375 J-1.137 F145.800 
G3 X-6.418 Y-172.149 Z0.000 J1.137 F145.800 
G3 X-7.500 Y-172.500 I-0.541 J-0.176 F145.800 
G0 Z5.000 
G0 Z5.000 
G0 X-27.500 Y-152.500 
G0 Z-16.000 
G3 Y-151.736 J0.382 F145.800 
G3 Y-153.264 Z-15.375 J-0.764 F145.800 
G3 Y-151.736 Z-14.750 J0.764 F145.800 
G3 Y-153.264 Z-14.125 J-0.764 F145.800 
G3 Y-151.736 Z-13.500 J0.764 F145.800 
G3 Y-153.264 Z-12.875 J-0.764 F145.800 
G3 Y-151.736 Z-12.250 J0.764 F145.800 
G3 Y-153.264 Z-11.625 J-0.764 F145.800 
G3 Y-151.736 Z-11.000 J0.764 F145.800 
G3 Y-153.264 Z-10.375 J-0.764 F145.800 
G3 Y-151.736 Z-9.750 J0.764 F145.800 
G3 Y-153.264 Z-9.125 J-0.764 F145.800 
G3 Y-151.736 Z-8.500 J0.764 F145.800 
G3 Y-153.264 Z-7.875 J-0.764 F145.800 
G3 Y-151.736 Z-7.250 J0.764 F145.800 
G3 Y-153.264 Z-6.625 J-0.764 F145.800 
G3 Y-151.736 Z-6.000 J0.764 F145.800 
G3 Y-153.264 Z-5.375 J-0.764 F145.800 
G3 Y-151.736 Z-4.750 J0.764 F145.800 
G3 Y-153.264 Z-4.125 J-0.764 F145.800 
G3 Y-151.736 Z-3.500 J0.764 F145.800 
G3 Y-153.264 Z-2.875 J-0.764 F145.800 
G3 Y-151.736 Z-2.250 J0.764 F145.800 
G3 Y-153.264 Z-1.625 J-0.764 F145.800 
G3 Y-151.736 Z-1.000 J0.764 F145.800 
G3 Y-153.264 Z-0.375 J-0.764 F145.800 
G3 X-26.774 Y-152.264 Z0.000 J0.764 F145.800 
G3 X-27.500 Y-152.500 I-0.363 J-0.118 F145.800 
G0 X-27.500 Y-152.500 
G0 Z-16.000 
G3 Y-151.363 J0.569 F145.800 
G3 Y-153.637 Z-15.375 J-1.137 F145.800 
G3 Y-151.363 Z-14.750 J1.137 F145.800 
G3 Y-153.637 Z-14.125 J-1.137 F145.800 
G3 Y-151.363 Z-13.500 J1.137 F145.800 
G3 Y-153.637 Z-12.875 J-1.137 F145.800 
G3 Y-151.363 Z-12.250 J1.137 F145.800 
G3 Y-153.637 Z-11.625 J-1.137 F145.800 
G3 Y-151.363 Z-11.000 J1.137 F145.800 
G3 Y-153.637 Z-10.375 J-1.137 F145.800 
G3 Y-151.363 Z-9.750 J1.137 F145.800 
G3 Y-153.637 Z-9.125 J-1.137 F145.800 
G3 Y-151.363 Z-8.500 J1.137 F145.800 
G3 Y-153.637 Z-7.875 J-1.137 F145.800 
G3 Y-151.363 Z-7.250 J1.137 F145.800 
G3 Y-153.637 Z-6.625 J-1.137 F145.800 
G3 Y-151.363 Z-6.000 J1.137 F145.800 
G3 Y-153.637 Z-5.375 J-1.137 F145.800 
G3 Y-151.363 Z-4.750 J1.137 F145.800 
G3 Y-153.637 Z-4.125 J-1.137 F145.800 
G3 Y-151.363 Z-3.500 J1.137 F145.800 
G3 Y-153.637 Z-2.875 J-1.137 F145.800 
G3 Y-151.363 Z-2.250 J1.137 F145.800 
G3 Y-153.637 Z-1.625 J-1.137 F145.800 
G3 Y-151.363 Z-1.000 J1.137 F145.800 
G3 Y-153.637 Z-0.375 J-1.137 F145.800 
G3 X-26.418 Y-152.149 Z0.000 J1.137 F145.800 
G3 X-27.500 Y-152.500 I-0.541 J-0.176 F145.800 
G0 Z5.000 
G0 Z5.000 
G0 X-27.500 Y-112.500 
G0 Z-16.000 
G3 Y-111.736 J0.382 F145.800 
G3 Y-113.264 Z-15.375 J-0.764 F145.800 
G3 Y-111.736 Z-14.750 J0.764 F145.800 
G3 Y-113.264 Z-14.125 J-0.764 F145.800 
G3 Y-111.736 Z-13.500 J0.764 F145.800 
G3 Y-113.264 Z-12.875 J-0.764 F145.800 
G3 Y-111.736 Z-12.250 J0.764 F145.800 
G3 Y-113.264 Z-11.625 J-0.764 F145.800 
G3 Y-111.736 Z-11.000 J0.764 F145.800 
G3 Y-113.264 Z-10.375 J-0.764 F145.800 
G3 Y-111.736 Z-9.750 J0.764 F145.800 
G3 Y-113.264 Z-9.125 J-0.764 F145.800 
G3 Y-111.736 Z-8.500 J0.764 F145.800 
G3 Y-113.264 Z-7.875 J-0.764 F145.800 
G3 Y-111.736 Z-7.250 J0.764 F145.800 
G3 Y-113.264 Z-6.625 J-0.764 F145.800 
G3 Y-111.736 Z-6.000 J0.764 F145.800 
G3 Y-113.264 Z-5.375 J-0.764 F145.800 
G3 Y-111.736 Z-4.750 J0.764 F145.800 
G3 Y-113.264 Z-4.125 J-0.764 F145.800 
G3 Y-111.736 Z-3.500 J0.764 F145.800 
G3 Y-113.264 Z-2.875 J-0.764 F145.800 
G3 Y-111.736 Z-2.250 J0.764 F145.800 
G3 Y-113.264 Z-1.625 J-0.764 F145.800 
G3 Y-111.736 Z-1.000 J0.764 F145.800 
G3 Y-113.264 Z-0.375 J-0.764 F145.800 
G3 X-26.774 Y-112.264 Z0.000 J0.764 F145.800 
G3 X-27.500 Y-112.500 I-0.363 J-0.118 F145.800 
G0 X-27.500 Y-112.500 
G0 Z-16.000 
G3 Y-111.363 J0.569 F145.800 
G3 Y-113.637 Z-15.375 J-1.137 F145.800 
G3 Y-111.363 Z-14.750 J1.137 F145.800 
G3 Y-113.637 Z-14.125 J-1.137 F145.800 
G3 Y-111.363 Z-13.500 J1.137 F145.800 
G3 Y-113.637 Z-12.875 J-1.137 F145.800 
G3 Y-111.363 Z-12.250 J1.137 F145.800 
G3 Y-113.637 Z-11.625 J-1.137 F145.800 
G3 Y-111.363 Z-11.000 J1.137 F145.800 
G3 Y-113.637 Z-10.375 J-1.137 F145.800 
G3 Y-111.363 Z-9.750 J1.137 F145.800 
G3 Y-113.637 Z-9.125 J-1.137 F145.800 
G3 Y-111.363 Z-8.500 J1.137 F145.800 
G3 Y-113.637 Z-7.875 J-1.137 F145.800 
G3 Y-111.363 Z-7.250 J1.137 F145.800 
G3 Y-113.637 Z-6.625 J-1.137 F145.800 
G3 Y-111.363 Z-6.000 J1.137 F145.800 
G3 Y-113.637 Z-5.375 J-1.137 F145.800 
G3 Y-111.363 Z-4.750 J1.137 F145.800 
G3 Y-113.637 Z-4.125 J-1.137 F145.800 
G3 Y-111.363 Z-3.500 J1.137 F145.800 
G3 Y-113.637 Z-2.875 J-1.137 F145.800 
G3 Y-111.363 Z-2.250 J1.137 F145.800 
G3 Y-113.637 Z-1.625 J-1.137 F145.800 
G3 Y-111.363 Z-1.000 J1.137 F145.800 
G3 Y-113.637 Z-0.375 J-1.137 F145.800 
G3 X-26.418 Y-112.149 Z0.000 J1.137 F145.800 
G3 X-27.500 Y-112.500 I-0.541 J-0.176 F145.800 
G0 Z5.000 
G0 Z5.000 
G0 X-27.500 Y-72.500 
G0 Z-16.000 
G3 Y-71.736 J0.382 F145.800 
G3 Y-73.264 Z-15.375 J-0.764 F145.800 
G3 Y-71.736 Z-14.750 J0.764 F145.800 
G3 Y-73.264 Z-14.125 J-0.764 F145.800 
G3 Y-71.736 Z-13.500 J0.764 F145.800 
G3 Y-73.264 Z-12.875 J-0.764 F145.800 
G3 Y-71.736 Z-12.250 J0.764 F145.800 
G3 Y-73.264 Z-11.625 J-0.764 F145.800 
G3 Y-71.736 Z-11.000 J0.764 F145.800 
G3 Y-73.264 Z-10.375 J-0.764 F145.800 
G3 Y-71.736 Z-9.750 J0.764 F145.800 
G3 Y-73.264 Z-9.125 J-0.764 F145.800 
G3 Y-71.736 Z-8.500 J0.764 F145.800 
G3 Y-73.264 Z-7.875 J-0.764 F145.800 
G3 Y-71.736 Z-7.250 J0.764 F145.800 
G3 Y-73.264 Z-6.625 J-0.764 F145.800 
G3 Y-71.736 Z-6.000 J0.764 F145.800 
G3 Y-73.264 Z-5.375 J-0.764 F145.800 
G3 Y-71.736 Z-4.750 J0.764 F145.800 
G3 Y-73.264 Z-4.125 J-0.764 F145.800 
G3 Y-71.736 Z-3.500 J0.764 F145.800 
G3 Y-73.264 Z-2.875 J-0.764 F145.800 
G3 Y-71.736 Z-2.250 J0.764 F145.800 
G3 Y-73.264 Z-1.625 J-0.764 F145.800 
G3 Y-71.736 Z-1.000 J0.764 F145.800 
G3 Y-73.264 Z-0.375 J-0.764 F145.800 
G3 X-26.774 Y-72.264 Z0.000 J0.764 F145.800 
G3 X-27.500 Y-72.500 I-0.363 J-0.118 F145.800 
G0 X-27.500 Y-72.500 
G0 Z-16.000 
G3 Y-71.363 J0.569 F145.800 
G3 Y-73.637 Z-15.375 J-1.137 F145.800 
G3 Y-71.363 Z-14.750 J1.137 F145.800 
G3 Y-73.637 Z-14.125 J-1.137 F145.800 
G3 Y-71.363 Z-13.500 J1.137 F145.800 
G3 Y-73.637 Z-12.875 J-1.137 F145.800 
G3 Y-71.363 Z-12.250 J1.137 F145.800 
G3 Y-73.637 Z-11.625 J-1.137 F145.800 
G3 Y-71.363 Z-11.000 J1.137 F145.800 
G3 Y-73.637 Z-10.375 J-1.137 F145.800 
G3 Y-71.363 Z-9.750 J1.137 F145.800 
G3 Y-73.637 Z-9.125 J-1.137 F145.800 
G3 Y-71.363 Z-8.500 J1.137 F145.800 
G3 Y-73.637 Z-7.875 J-1.137 F145.800 
G3 Y-71.363 Z-7.250 J1.137 F145.800 
G3 Y-73.637 Z-6.625 J-1.137 F145.800 
G3 Y-71.363 Z-6.000 J1.137 F145.800 
G3 Y-73.637 Z-5.375 J-1.137 F145.800 
G3 Y-71.363 Z-4.750 J1.137 F145.800 
G3 Y-73.637 Z-4.125 J-1.137 F145.800 
G3 Y-71.363 Z-3.500 J1.137 F145.800 
G3 Y-73.637 Z-2.875 J-1.137 F145.800 
G3 Y-71.363 Z-2.250 J1.137 F145.800 
G3 Y-73.637 Z-1.625 J-1.137 F145.800 
G3 Y-71.363 Z-1.000 J1.137 F145.800 
G3 Y-73.637 Z-0.375 J-1.137 F145.800 
G3 X-26.418 Y-72.149 Z0.000 J1.137 F145.800 
G3 X-27.500 Y-72.500 I-0.541 J-0.176 F145.800 
G0 Z5.000 
G0 Z5.000 
G0 X-27.500 Y-32.500 
G0 Z-16.000 
G3 Y-31.736 J0.382 F145.800 
G3 Y-33.264 Z-15.375 J-0.764 F145.800 
G3 Y-31.736 Z-14.750 J0.764 F145.800 
G3 Y-33.264 Z-14.125 J-0.764 F145.800 
G3 Y-31.736 Z-13.500 J0.764 F145.800 
G3 Y-33.264 Z-12.875 J-0.764 F145.800 
G3 Y-31.736 Z-12.250 J0.764 F145.800 
G3 Y-33.264 Z-11.625 J-0.764 F145.800 
G3 Y-31.736 Z-11.000 J0.764 F145.800 
G3 Y-33.264 Z-10.375 J-0.764 F145.800 
G3 Y-31.736 Z-9.750 J0.764 F145.800 
G3 Y-33.264 Z-9.125 J-0.764 F145.800 
G3 Y-31.736 Z-8.500 J0.764 F145.800 
G3 Y-33.264 Z-7.875 J-0.764 F145.800 
G3 Y-31.736 Z-7.250 J0.764 F145.800 
G3 Y-33.264 Z-6.625 J-0.764 F145.800 
G3 Y-31.736 Z-6.000 J0.764 F145.800 
G3 Y-33.264 Z-5.375 J-0.764 F145.800 
G3 Y-31.736 Z-4.750 J0.764 F145.800 
G3 Y-33.264 Z-4.125 J-0.764 F145.800 
G3 Y-31.736 Z-3.500 J0.764 F145.800 
G3 Y-33.264 Z-2.875 J-0.764 F145.800 
G3 Y-31.736 Z-2.250 J0.764 F145.800 
G3 Y-33.264 Z-1.625 J-0.764 F145.800 
G3 Y-31.736 Z-1.000 J0.764 F145.800 
G3 Y-33.264 Z-0.375 J-0.764 F145.800 
G3 X-26.774 Y-32.264 Z0.000 J0.764 F145.800 
G3 X-27.500 Y-32.500 I-0.363 J-0.118 F145.800 
G0 X-27.500 Y-32.500 
G0 Z-16.000 
G3 Y-31.363 J0.569 F145.800 
G3 Y-33.637 Z-15.375 J-1.137 F145.800 
G3 Y-31.363 Z-14.750 J1.137 F145.800 
G3 Y-33.637 Z-14.125 J-1.137 F145.800 
G3 Y-31.363 Z-13.500 J1.137 F145.800 
G3 Y-33.637 Z-12.875 J-1.137 F145.800 
G3 Y-31.363 Z-12.250 J1.137 F145.800 
G3 Y-33.637 Z-11.625 J-1.137 F145.800 
G3 Y-31.363 Z-11.000 J1.137 F145.800 
G3 Y-33.637 Z-10.375 J-1.137 F145.800 
G3 Y-31.363 Z-9.750 J1.137 F145.800 
G3 Y-33.637 Z-9.125 J-1.137 F145.800 
G3 Y-31.363 Z-8.500 J1.137 F145.800 
G3 Y-33.637 Z-7.875 J-1.137 F145.800 
G3 Y-31.363 Z-7.250 J1.137 F145.800 
G3 Y-33.637 Z-6.625 J-1.137 F145.800 
G3 Y-31.363 Z-6.000 J1.137 F145.800 
G3 Y-33.637 Z-5.375 J-1.137 F145.800 
G3 Y-31.363 Z-4.750 J1.137 F145.800 
G3 Y-33.637 Z-4.125 J-1.137 F145.800 
G3 Y-31.363 Z-3.500 J1.137 F145.800 
G3 Y-33.637 Z-2.875 J-1.137 F145.800 
G3 Y-31.363 Z-2.250 J1.137 F145.800 
G3 Y-33.637 Z-1.625 J-1.137 F145.800 
G3 Y-31.363 Z-1.000 J1.137 F145.800 
G3 Y-33.637 Z-0.375 J-1.137 F145.800 
G3 X-26.418 Y-32.149 Z0.000 J1.137 F145.800 
G3 X-27.500 Y-32.500 I-0.541 J-0.176 F145.800 
G0 Z5.000 
G0 Z5.000 
G0 X-47.500 Y-12.500 
G0 Z-16.000 
G3 Y-11.736 J0.382 F145.800 
G3 Y-13.264 Z-15.375 J-0.764 F145.800 
G3 Y-11.736 Z-14.750 J0.764 F145.800 
G3 Y-13.264 Z-14.125 J-0.764 F145.800 
G3 Y-11.736 Z-13.500 J0.764 F145.800 
G3 Y-13.264 Z-12.875 J-0.764 F145.800 
G3 Y-11.736 Z-12.250 J0.764 F145.800 
G3 Y-13.264 Z-11.625 J-0.764 F145.800 
G3 Y-11.736 Z-11.000 J0.764 F145.800 
G3 Y-13.264 Z-10.375 J-0.764 F145.800 
G3 Y-11.736 Z-9.750 J0.764 F145.800 
G3 Y-13.264 Z-9.125 J-0.764 F145.800 
G3 Y-11.736 Z-8.500 J0.764 F145.800 
G3 Y-13.264 Z-7.875 J-0.764 F145.800 
G3 Y-11.736 Z-7.250 J0.764 F145.800 
G3 Y-13.264 Z-6.625 J-0.764 F145.800 
G3 Y-11.736 Z-6.000 J0.764 F145.800 
G3 Y-13.264 Z-5.375 J-0.764 F145.800 
G3 Y-11.736 Z-4.750 J0.764 F145.800 
G3 Y-13.264 Z-4.125 J-0.764 F145.800 
G3 Y-11.736 Z-3.500 J0.764 F145.800 
G3 Y-13.264 Z-2.875 J-0.764 F145.800 
G3 Y-11.736 Z-2.250 J0.764 F145.800 
G3 Y-13.264 Z-1.625 J-0.764 F145.800 
G3 Y-11.736 Z-1.000 J0.764 F145.800 
G3 Y-13.264 Z-0.375 J-0.764 F145.800 
G3 X-46.774 Y-12.264 Z0.000 J0.764 F145.800 
G3 X-47.500 Y-12.500 I-0.363 J-0.118 F145.800 
G0 X-47.500 Y-12.500 
G0 Z-16.000 
G3 Y-11.363 J0.569 F145.800 
G3 Y-13.637 Z-15.375 J-1.137 F145.800 
G3 Y-11.363 Z-14.750 J1.137 F145.800 
G3 Y-13.637 Z-14.125 J-1.137 F145.800 
G3 Y-11.363 Z-13.500 J1.137 F145.800 
G3 Y-13.637 Z-12.875 J-1.137 F145.800 
G3 Y-11.363 Z-12.250 J1.137 F145.800 
G3 Y-13.637 Z-11.625 J-1.137 F145.800 
G3 Y-11.363 Z-11.000 J1.137 F145.800 
G3 Y-13.637 Z-10.375 J-1.137 F145.800 
G3 Y-11.363 Z-9.750 J1.137 F145.800 
G3 Y-13.637 Z-9.125 J-1.137 F145.800 
G3 Y-11.363 Z-8.500 J1.137 F145.800 
G3 Y-13.637 Z-7.875 J-1.137 F145.800 
G3 Y-11.363 Z-7.250 J1.137 F145.800 
G3 Y-13.637 Z-6.625 J-1.137 F145.800 
G3 Y-11.363 Z-6.000 J1.137 F145.800 
G3 Y-13.637 Z-5.375 J-1.137 F145.800 
G3 Y-11.363 Z-4.750 J1.137 F145.800 
G3 Y-13.637 Z-4.125 J-1.137 F145.800 
G3 Y-11.363 Z-3.500 J1.137 F145.800 
G3 Y-13.637 Z-2.875 J-1.137 F145.800 
G3 Y-11.363 Z-2.250 J1.137 F145.800 
G3 Y-13.637 Z-1.625 J-1.137 F145.800 
G3 Y-11.363 Z-1.000 J1.137 F145.800 
G3 Y-13.637 Z-0.375 J-1.137 F145.800 
G3 X-46.418 Y-12.149 Z0.000 J1.137 F145.800 
G3 X-47.500 Y-12.500 I-0.541 J-0.176 F145.800 
G0 Z5.000 
G0 Z5.000 
G0 X-47.500 Y-52.500 
G0 Z-16.000 
G3 Y-51.736 J0.382 F145.800 
G3 Y-53.264 Z-15.375 J-0.764 F145.800 
G3 Y-51.736 Z-14.750 J0.764 F145.800 
G3 Y-53.264 Z-14.125 J-0.764 F145.800 
G3 Y-51.736 Z-13.500 J0.764 F145.800 
G3 Y-53.264 Z-12.875 J-0.764 F145.800 
G3 Y-51.736 Z-12.250 J0.764 F145.800 
G3 Y-53.264 Z-11.625 J-0.764 F145.800 
G3 Y-51.736 Z-11.000 J0.764 F145.800 
G3 Y-53.264 Z-10.375 J-0.764 F145.800 
G3 Y-51.736 Z-9.750 J0.764 F145.800 
G3 Y-53.264 Z-9.125 J-0.764 F145.800 
G3 Y-51.736 Z-8.500 J0.764 F145.800 
G3 Y-53.264 Z-7.875 J-0.764 F145.800 
G3 Y-51.736 Z-7.250 J0.764 F145.800 
G3 Y-53.264 Z-6.625 J-0.764 F145.800 
G3 Y-51.736 Z-6.000 J0.764 F145.800 
G3 Y-53.264 Z-5.375 J-0.764 F145.800 
G3 Y-51.736 Z-4.750 J0.764 F145.800 
G3 Y-53.264 Z-4.125 J-0.764 F145.800 
G3 Y-51.736 Z-3.500 J0.764 F145.800 
G3 Y-53.264 Z-2.875 J-0.764 F145.800 
G3 Y-51.736 Z-2.250 J0.764 F145.800 
G3 Y-53.264 Z-1.625 J-0.764 F145.800 
G3 Y-51.736 Z-1.000 J0.764 F145.800 
G3 Y-53.264 Z-0.375 J-0.764 F145.800 
G3 X-46.774 Y-52.264 Z0.000 J0.764 F145.800 
G3 X-47.500 Y-52.500 I-0.363 J-0.118 F145.800 
G0 X-47.500 Y-52.500 
G0 Z-16.000 
G3 Y-51.363 J0.569 F145.800 
G3 Y-53.637 Z-15.375 J-1.137 F145.800 
G3 Y-51.363 Z-14.750 J1.137 F145.800 
G3 Y-53.637 Z-14.125 J-1.137 F145.800 
G3 Y-51.363 Z-13.500 J1.137 F145.800 
G3 Y-53.637 Z-12.875 J-1.137 F145.800 
G3 Y-51.363 Z-12.250 J1.137 F145.800 
G3 Y-53.637 Z-11.625 J-1.137 F145.800 
G3 Y-51.363 Z-11.000 J1.137 F145.800 
G3 Y-53.637 Z-10.375 J-1.137 F145.800 
G3 Y-51.363 Z-9.750 J1.137 F145.800 
G3 Y-53.637 Z-9.125 J-1.137 F145.800 
G3 Y-51.363 Z-8.500 J1.137 F145.800 
G3 Y-53.637 Z-7.875 J-1.137 F145.800 
G3 Y-51.363 Z-7.250 J1.137 F145.800 
G3 Y-53.637 Z-6.625 J-1.137 F145.800 
G3 Y-51.363 Z-6.000 J1.137 F145.800 
G3 Y-53.637 Z-5.375 J-1.137 F145.800 
G3 Y-51.363 Z-4.750 J1.137 F145.800 
G3 Y-53.637 Z-4.125 J-1.137 F145.800 
G3 Y-51.363 Z-3.500 J1.137 F145.800 
G3 Y-53.637 Z-2.875 J-1.137 F145.800 
G3 Y-51.363 Z-2.250 J1.137 F145.800 
G3 Y-53.637 Z-1.625 J-1.137 F145.800 
G3 Y-51.363 Z-1.000 J1.137 F145.800 
G3 Y-53.637 Z-0.375 J-1.137 F145.800 
G3 X-46.418 Y-52.149 Z0.000 J1.137 F145.800 
G3 X-47.500 Y-52.500 I-0.541 J-0.176 F145.800 
G0 Z5.000 
G0 Z5.000 
G0 X-47.500 Y-92.500 
G0 Z-16.000 
G3 Y-91.736 J0.382 F145.800 
G3 Y-93.264 Z-15.375 J-0.764 F145.800 
G3 Y-91.736 Z-14.750 J0.764 F145.800 
G3 Y-93.264 Z-14.125 J-0.764 F145.800 
G3 Y-91.736 Z-13.500 J0.764 F145.800 
G3 Y-93.264 Z-12.875 J-0.764 F145.800 
G3 Y-91.736 Z-12.250 J0.764 F145.800 
G3 Y-93.264 Z-11.625 J-0.764 F145.800 
G3 Y-91.736 Z-11.000 J0.764 F145.800 
G3 Y-93.264 Z-10.375 J-0.764 F145.800 
G3 Y-91.736 Z-9.750 J0.764 F145.800 
G3 Y-93.264 Z-9.125 J-0.764 F145.800 
G3 Y-91.736 Z-8.500 J0.764 F145.800 
G3 Y-93.264 Z-7.875 J-0.764 F145.800 
G3 Y-91.736 Z-7.250 J0.764 F145.800 
G3 Y-93.264 Z-6.625 J-0.764 F145.800 
G3 Y-91.736 Z-6.000 J0.764 F145.800 
G3 Y-93.264 Z-5.375 J-0.764 F145.800 
G3 Y-91.736 Z-4.750 J0.764 F145.800 
G3 Y-93.264 Z-4.125 J-0.764 F145.800 
G3 Y-91.736 Z-3.500 J0.764 F145.800 
G3 Y-93.264 Z-2.875 J-0.764 F145.800 
G3 Y-91.736 Z-2.250 J0.764 F145.800 
G3 Y-93.264 Z-1.625 J-0.764 F145.800 
G3 Y-91.736 Z-1.000 J0.764 F145.800 
G3 Y-93.264 Z-0.375 J-0.764 F145.800 
G3 X-46.774 Y-92.264 Z0.000 J0.764 F145.800 
G3 X-47.500 Y-92.500 I-0.363 J-0.118 F145.800 
G0 X-47.500 Y-92.500 
G0 Z-16.000 
G3 Y-91.363 J0.569 F145.800 
G3 Y-93.637 Z-15.375 J-1.137 F145.800 
G3 Y-91.363 Z-14.750 J1.137 F145.800 
G3 Y-93.637 Z-14.125 J-1.137 F145.800 
G3 Y-91.363 Z-13.500 J1.137 F145.800 
G3 Y-93.637 Z-12.875 J-1.137 F145.800 
G3 Y-91.363 Z-12.250 J1.137 F145.800 
G3 Y-93.637 Z-11.625 J-1.137 F145.800 
G3 Y-91.363 Z-11.000 J1.137 F145.800 
G3 Y-93.637 Z-10.375 J-1.137 F145.800 
G3 Y-91.363 Z-9.750 J1.137 F145.800 
G3 Y-93.637 Z-9.125 J-1.137 F145.800 
G3 Y-91.363 Z-8.500 J1.137 F145.800 
G3 Y-93.637 Z-7.875 J-1.137 F145.800 
G3 Y-91.363 Z-7.250 J1.137 F145.800 
G3 Y-93.637 Z-6.625 J-1.137 F145.800 
G3 Y-91.363 Z-6.000 J1.137 F145.800 
G3 Y-93.637 Z-5.375 J-1.137 F145.800 
G3 Y-91.363 Z-4.750 J1.137 F145.800 
G3 Y-93.637 Z-4.125 J-1.137 F145.800 
G3 Y-91.363 Z-3.500 J1.137 F145.800 
G3 Y-93.637 Z-2.875 J-1.137 F145.800 
G3 Y-91.363 Z-2.250 J1.137 F145.800 
G3 Y-93.637 Z-1.625 J-1.137 F145.800 
G3 Y-91.363 Z-1.000 J1.137 F145.800 
G3 Y-93.637 Z-0.375 J-1.137 F145.800 
G3 X-46.418 Y-92.149 Z0.000 J1.137 F145.800 
G3 X-47.500 Y-92.500 I-0.541 J-0.176 F145.800 
G0 Z5.000 
G0 Z5.000 
G0 X-47.500 Y-132.500 
G0 Z-16.000 
G3 Y-131.736 J0.382 F145.800 
G3 Y-133.264 Z-15.375 J-0.764 F145.800 
G3 Y-131.736 Z-14.750 J0.764 F145.800 
G3 Y-133.264 Z-14.125 J-0.764 F145.800 
G3 Y-131.736 Z-13.500 J0.764 F145.800 
G3 Y-133.264 Z-12.875 J-0.764 F145.800 
G3 Y-131.736 Z-12.250 J0.764 F145.800 
G3 Y-133.264 Z-11.625 J-0.764 F145.800 
G3 Y-131.736 Z-11.000 J0.764 F145.800 
G3 Y-133.264 Z-10.375 J-0.764 F145.800 
G3 Y-131.736 Z-9.750 J0.764 F145.800 
G3 Y-133.264 Z-9.125 J-0.764 F145.800 
G3 Y-131.736 Z-8.500 J0.764 F145.800 
G3 Y-133.264 Z-7.875 J-0.764 F145.800 
G3 Y-131.736 Z-7.250 J0.764 F145.800 
G3 Y-133.264 Z-6.625 J-0.764 F145.800 
G3 Y-131.736 Z-6.000 J0.764 F145.800 
G3 Y-133.264 Z-5.375 J-0.764 F145.800 
G3 Y-131.736 Z-4.750 J0.764 F145.800 
G3 Y-133.264 Z-4.125 J-0.764 F145.800 
G3 Y-131.736 Z-3.500 J0.764 F145.800 
G3 Y-133.264 Z-2.875 J-0.764 F145.800 
G3 Y-131.736 Z-2.250 J0.764 F145.800 
G3 Y-133.264 Z-1.625 J-0.764 F145.800 
G3 Y-131.736 Z-1.000 J0.764 F145.800 
G3 Y-133.264 Z-0.375 J-0.764 F145.800 
G3 X-46.774 Y-132.264 Z0.000 J0.764 F145.800 
G3 X-47.500 Y-132.500 I-0.363 J-0.118 F145.800 
G0 X-47.500 Y-132.500 
G0 Z-16.000 
G3 Y-131.363 J0.569 F145.800 
G3 Y-133.637 Z-15.375 J-1.137 F145.800 
G3 Y-131.363 Z-14.750 J1.137 F145.800 
G3 Y-133.637 Z-14.125 J-1.137 F145.800 
G3 Y-131.363 Z-13.500 J1.137 F145.800 
G3 Y-133.637 Z-12.875 J-1.137 F145.800 
G3 Y-131.363 Z-12.250 J1.137 F145.800 
G3 Y-133.637 Z-11.625 J-1.137 F145.800 
G3 Y-131.363 Z-11.000 J1.137 F145.800 
G3 Y-133.637 Z-10.375 J-1.137 F145.800 
G3 Y-131.363 Z-9.750 J1.137 F145.800 
G3 Y-133.637 Z-9.125 J-1.137 F145.800 
G3 Y-131.363 Z-8.500 J1.137 F145.800 
G3 Y-133.637 Z-7.875 J-1.137 F145.800 
G3 Y-131.363 Z-7.250 J1.137 F145.800 
G3 Y-133.637 Z-6.625 J-1.137 F145.800 
G3 Y-131.363 Z-6.000 J1.137 F145.800 
G3 Y-133.637 Z-5.375 J-1.137 F145.800 
G3 Y-131.363 Z-4.750 J1.137 F145.800 
G3 Y-133.637 Z-4.125 J-1.137 F145.800 
G3 Y-131.363 Z-3.500 J1.137 F145.800 
G3 Y-133.637 Z-2.875 J-1.137 F145.800 
G3 Y-131.363 Z-2.250 J1.137 F145.800 
G3 Y-133.637 Z-1.625 J-1.137 F145.800 
G3 Y-131.363 Z-1.000 J1.137 F145.800 
G3 Y-133.637 Z-0.375 J-1.137 F145.800 
G3 X-46.418 Y-132.149 Z0.000 J1.137 F145.800 
G3 X-47.500 Y-132.500 I-0.541 J-0.176 F145.800 
G0 Z5.000 
G0 Z5.000 
G0 X-47.500 Y-172.500 
G0 Z-16.000 
G3 Y-171.736 J0.382 F145.800 
G3 Y-173.264 Z-15.375 J-0.764 F145.800 
G3 Y-171.736 Z-14.750 J0.764 F145.800 
G3 Y-173.264 Z-14.125 J-0.764 F145.800 
G3 Y-171.736 Z-13.500 J0.764 F145.800 
G3 Y-173.264 Z-12.875 J-0.764 F145.800 
G3 Y-171.736 Z-12.250 J0.764 F145.800 
G3 Y-173.264 Z-11.625 J-0.764 F145.800 
G3 Y-171.736 Z-11.000 J0.764 F145.800 
G3 Y-173.264 Z-10.375 J-0.764 F145.800 
G3 Y-171.736 Z-9.750 J0.764 F145.800 
G3 Y-173.264 Z-9.125 J-0.764 F145.800 
G3 Y-171.736 Z-8.500 J0.764 F145.800 
G3 Y-173.264 Z-7.875 J-0.764 F145.800 
G3 Y-171.736 Z-7.250 J0.764 F145.800 
G3 Y-173.264 Z-6.625 J-0.764 F145.800 
G3 Y-171.736 Z-6.000 J0.764 F145.800 
G3 Y-173.264 Z-5.375 J-0.764 F145.800 
G3 Y-171.736 Z-4.750 J0.764 F145.800 
G3 Y-173.264 Z-4.125 J-0.764 F145.800 
G3 Y-171.736 Z-3.500 J0.764 F145.800 
G3 Y-173.264 Z-2.875 J-0.764 F145.800 
G3 Y-171.736 Z-2.250 J0.764 F145.800 
G3 Y-173.264 Z-1.625 J-0.764 F145.800 
G3 Y-171.736 Z-1.000 J0.764 F145.800 
G3 Y-173.264 Z-0.375 J-0.764 F145.800 
G3 X-46.774 Y-172.264 Z0.000 J0.764 F145.800 
G3 X-47.500 Y-172.500 I-0.363 J-0.118 F145.800 
G0 X-47.500 Y-172.500 
G0 Z-16.000 
G3 Y-171.363 J0.569 F145.800 
G3 Y-173.637 Z-15.375 J-1.137 F145.800 
G3 Y-171.363 Z-14.750 J1.137 F145.800 
G3 Y-173.637 Z-14.125 J-1.137 F145.800 
G3 Y-171.363 Z-13.500 J1.137 F145.800 
G3 Y-173.637 Z-12.875 J-1.137 F145.800 
G3 Y-171.363 Z-12.250 J1.137 F145.800 
G3 Y-173.637 Z-11.625 J-1.137 F145.800 
G3 Y-171.363 Z-11.000 J1.137 F145.800 
G3 Y-173.637 Z-10.375 J-1.137 F145.800 
G3 Y-171.363 Z-9.750 J1.137 F145.800 
G3 Y-173.637 Z-9.125 J-1.137 F145.800 
G3 Y-171.363 Z-8.500 J1.137 F145.800 
G3 Y-173.637 Z-7.875 J-1.137 F145.800 
G3 Y-171.363 Z-7.250 J1.137 F145.800 
G3 Y-173.637 Z-6.625 J-1.137 F145.800 
G3 Y-171.363 Z-6.000 J1.137 F145.800 
G3 Y-173.637 Z-5.375 J-1.137 F145.800 
G3 Y-171.363 Z-4.750 J1.137 F145.800 
G3 Y-173.637 Z-4.125 J-1.137 F145.800 
G3 Y-171.363 Z-3.500 J1.137 F145.800 
G3 Y-173.637 Z-2.875 J-1.137 F145.800 
G3 Y-171.363 Z-2.250 J1.137 F145.800 
G3 Y-173.637 Z-1.625 J-1.137 F145.800 
G3 Y-171.363 Z-1.000 J1.137 F145.800 
G3 Y-173.637 Z-0.375 J-1.137 F145.800 
G3 X-46.418 Y-172.149 Z0.000 J1.137 F145.800 
G3 X-47.500 Y-172.500 I-0.541 J-0.176 F145.800 
G0 Z5.000 
G0 Z5.000 
G0 X-67.500 Y-152.500 
G0 Z-16.000 
G3 Y-151.736 J0.382 F145.800 
G3 Y-153.264 Z-15.375 J-0.764 F145.800 
G3 Y-151.736 Z-14.750 J0.764 F145.800 
G3 Y-153.264 Z-14.125 J-0.764 F145.800 
G3 Y-151.736 Z-13.500 J0.764 F145.800 
G3 Y-153.264 Z-12.875 J-0.764 F145.800 
G3 Y-151.736 Z-12.250 J0.764 F145.800 
G3 Y-153.264 Z-11.625 J-0.764 F145.800 
G3 Y-151.736 Z-11.000 J0.764 F145.800 
G3 Y-153.264 Z-10.375 J-0.764 F145.800 
G3 Y-151.736 Z-9.750 J0.764 F145.800 
G3 Y-153.264 Z-9.125 J-0.764 F145.800 
G3 Y-151.736 Z-8.500 J0.764 F145.800 
G3 Y-153.264 Z-7.875 J-0.764 F145.800 
G3 Y-151.736 Z-7.250 J0.764 F145.800 
G3 Y-153.264 Z-6.625 J-0.764 F145.800 
G3 Y-151.736 Z-6.000 J0.764 F145.800 
G3 Y-153.264 Z-5.375 J-0.764 F145.800 
G3 Y-151.736 Z-4.750 J0.764 F145.800 
G3 Y-153.264 Z-4.125 J-0.764 F145.800 
G3 Y-151.736 Z-3.500 J0.764 F145.800 
G3 Y-153.264 Z-2.875 J-0.764 F145.800 
G3 Y-151.736 Z-2.250 J0.764 F145.800 
G3 Y-153.264 Z-1.625 J-0.764 F145.800 
G3 Y-151.736 Z-1.000 J0.764 F145.800 
G3 Y-153.264 Z-0.375 J-0.764 F145.800 
G3 X-66.774 Y-152.264 Z0.000 J0.764 F145.800 
G3 X-67.500 Y-152.500 I-0.363 J-0.118 F145.800 
G0 X-67.500 Y-152.500 
G0 Z-16.000 
G3 Y-151.363 J0.569 F145.800 
G3 Y-153.637 Z-15.375 J-1.137 F145.800 
G3 Y-151.363 Z-14.750 J1.137 F145.800 
G3 Y-153.637 Z-14.125 J-1.137 F145.800 
G3 Y-151.363 Z-13.500 J1.137 F145.800 
G3 Y-153.637 Z-12.875 J-1.137 F145.800 
G3 Y-151.363 Z-12.250 J1.137 F145.800 
G3 Y-153.637 Z-11.625 J-1.137 F145.800 
G3 Y-151.363 Z-11.000 J1.137 F145.800 
G3 Y-153.637 Z-10.375 J-1.137 F145.800 
G3 Y-151.363 Z-9.750 J1.137 F145.800 
G3 Y-153.637 Z-9.125 J-1.137 F145.800 
G3 Y-151.363 Z-8.500 J1.137 F145.800 
G3 Y-153.637 Z-7.875 J-1.137 F145.800 
G3 Y-151.363 Z-7.250 J1.137 F145.800 
G3 Y-153.637 Z-6.625 J-1.137 F145.800 
G3 Y-151.363 Z-6.000 J1.137 F145.800 
G3 Y-153.637 Z-5.375 J-1.137 F145.800 
G3 Y-151.363 Z-4.750 J1.137 F145.800 
G3 Y-153.637 Z-4.125 J-1.137 F145.800 
G3 Y-151.363 Z-3.500 J1.137 F145.800 
G3 Y-153.637 Z-2.875 J-1.137 F145.800 
G3 Y-151.363 Z-2.250 J1.137 F145.800 
G3 Y-153.637 Z-1.625 J-1.137 F145.800 
G3 Y-151.363 Z-1.000 J1.137 F145.800 
G3 Y-153.637 Z-0.375 J-1.137 F145.800 
G3 X-66.418 Y-152.149 Z0.000 J1.137 F145.800 
G3 X-67.500 Y-152.500 I-0.541 J-0.176 F145.800 
G0 Z5.000 
G0 Z5.000 
G0 X-67.500 Y-112.500 
G0 Z-16.000 
G3 Y-111.736 J0.382 F145.800 
G3 Y-113.264 Z-15.375 J-0.764 F145.800 
G3 Y-111.736 Z-14.750 J0.764 F145.800 
G3 Y-113.264 Z-14.125 J-0.764 F145.800 
G3 Y-111.736 Z-13.500 J0.764 F145.800 
G3 Y-113.264 Z-12.875 J-0.764 F145.800 
G3 Y-111.736 Z-12.250 J0.764 F145.800 
G3 Y-113.264 Z-11.625 J-0.764 F145.800 
G3 Y-111.736 Z-11.000 J0.764 F145.800 
G3 Y-113.264 Z-10.375 J-0.764 F145.800 
G3 Y-111.736 Z-9.750 J0.764 F145.800 
G3 Y-113.264 Z-9.125 J-0.764 F145.800 
G3 Y-111.736 Z-8.500 J0.764 F145.800 
G3 Y-113.264 Z-7.875 J-0.764 F145.800 
G3 Y-111.736 Z-7.250 J0.764 F145.800 
G3 Y-113.264 Z-6.625 J-0.764 F145.800 
G3 Y-111.736 Z-6.000 J0.764 F145.800 
G3 Y-113.264 Z-5.375 J-0.764 F145.800 
G3 Y-111.736 Z-4.750 J0.764 F145.800 
G3 Y-113.264 Z-4.125 J-0.764 F145.800 
G3 Y-111.736 Z-3.500 J0.764 F145.800 
G3 Y-113.264 Z-2.875 J-0.764 F145.800 
G3 Y-111.736 Z-2.250 J0.764 F145.800 
G3 Y-113.264 Z-1.625 J-0.764 F145.800 
G3 Y-111.736 Z-1.000 J0.764 F145.800 
G3 Y-113.264 Z-0.375 J-0.764 F145.800 
G3 X-66.774 Y-112.264 Z0.000 J0.764 F145.800 
G3 X-67.500 Y-112.500 I-0.363 J-0.118 F145.800 
G0 X-67.500 Y-112.500 
G0 Z-16.000 
G3 Y-111.363 J0.569 F145.800 
G3 Y-113.637 Z-15.375 J-1.137 F145.800 
G3 Y-111.363 Z-14.750 J1.137 F145.800 
G3 Y-113.637 Z-14.125 J-1.137 F145.800 
G3 Y-111.363 Z-13.500 J1.137 F145.800 
G3 Y-113.637 Z-12.875 J-1.137 F145.800 
G3 Y-111.363 Z-12.250 J1.137 F145.800 
G3 Y-113.637 Z-11.625 J-1.137 F145.800 
G3 Y-111.363 Z-11.000 J1.137 F145.800 
G3 Y-113.637 Z-10.375 J-1.137 F145.800 
G3 Y-111.363 Z-9.750 J1.137 F145.800 
G3 Y-113.637 Z-9.125 J-1.137 F145.800 
G3 Y-111.363 Z-8.500 J1.137 F145.800 
G3 Y-113.637 Z-7.875 J-1.137 F145.800 
G3 Y-111.363 Z-7.250 J1.137 F145.800 
G3 Y-113.637 Z-6.625 J-1.137 F145.800 
G3 Y-111.363 Z-6.000 J1.137 F145.800 
G3 Y-113.637 Z-5.375 J-1.137 F145.800 
G3 Y-111.363 Z-4.750 J1.137 F145.800 
G3 Y-113.637 Z-4.125 J-1.137 F145.800 
G3 Y-111.363 Z-3.500 J1.137 F145.800 
G3 Y-113.637 Z-2.875 J-1.137 F145.800 
G3 Y-111.363 Z-2.250 J1.137 F145.800 
G3 Y-113.637 Z-1.625 J-1.137 F145.800 
G3 Y-111.363 Z-1.000 J1.137 F145.800 
G3 Y-113.637 Z-0.375 J-1.137 F145.800 
G3 X-66.418 Y-112.149 Z0.000 J1.137 F145.800 
G3 X-67.500 Y-112.500 I-0.541 J-0.176 F145.800 
G0 Z5.000 
G0 Z5.000 
G0 X-67.500 Y-72.500 
G0 Z-16.000 
G3 Y-71.736 J0.382 F145.800 
G3 Y-73.264 Z-15.375 J-0.764 F145.800 
G3 Y-71.736 Z-14.750 J0.764 F145.800 
G3 Y-73.264 Z-14.125 J-0.764 F145.800 
G3 Y-71.736 Z-13.500 J0.764 F145.800 
G3 Y-73.264 Z-12.875 J-0.764 F145.800 
G3 Y-71.736 Z-12.250 J0.764 F145.800 
G3 Y-73.264 Z-11.625 J-0.764 F145.800 
G3 Y-71.736 Z-11.000 J0.764 F145.800 
G3 Y-73.264 Z-10.375 J-0.764 F145.800 
G3 Y-71.736 Z-9.750 J0.764 F145.800 
G3 Y-73.264 Z-9.125 J-0.764 F145.800 
G3 Y-71.736 Z-8.500 J0.764 F145.800 
G3 Y-73.264 Z-7.875 J-0.764 F145.800 
G3 Y-71.736 Z-7.250 J0.764 F145.800 
G3 Y-73.264 Z-6.625 J-0.764 F145.800 
G3 Y-71.736 Z-6.000 J0.764 F145.800 
G3 Y-73.264 Z-5.375 J-0.764 F145.800 
G3 Y-71.736 Z-4.750 J0.764 F145.800 
G3 Y-73.264 Z-4.125 J-0.764 F145.800 
G3 Y-71.736 Z-3.500 J0.764 F145.800 
G3 Y-73.264 Z-2.875 J-0.764 F145.800 
G3 Y-71.736 Z-2.250 J0.764 F145.800 
G3 Y-73.264 Z-1.625 J-0.764 F145.800 
G3 Y-71.736 Z-1.000 J0.764 F145.800 
G3 Y-73.264 Z-0.375 J-0.764 F145.800 
G3 X-66.774 Y-72.264 Z0.000 J0.764 F145.800 
G3 X-67.500 Y-72.500 I-0.363 J-0.118 F145.800 
G0 X-67.500 Y-72.500 
G0 Z-16.000 
G3 Y-71.363 J0.569 F145.800 
G3 Y-73.637 Z-15.375 J-1.137 F145.800 
G3 Y-71.363 Z-14.750 J1.137 F145.800 
G3 Y-73.637 Z-14.125 J-1.137 F145.800 
G3 Y-71.363 Z-13.500 J1.137 F145.800 
G3 Y-73.637 Z-12.875 J-1.137 F145.800 
G3 Y-71.363 Z-12.250 J1.137 F145.800 
G3 Y-73.637 Z-11.625 J-1.137 F145.800 
G3 Y-71.363 Z-11.000 J1.137 F145.800 
G3 Y-73.637 Z-10.375 J-1.137 F145.800 
G3 Y-71.363 Z-9.750 J1.137 F145.800 
G3 Y-73.637 Z-9.125 J-1.137 F145.800 
G3 Y-71.363 Z-8.500 J1.137 F145.800 
G3 Y-73.637 Z-7.875 J-1.137 F145.800 
G3 Y-71.363 Z-7.250 J1.137 F145.800 
G3 Y-73.637 Z-6.625 J-1.137 F145.800 
G3 Y-71.363 Z-6.000 J1.137 F145.800 
G3 Y-73.637 Z-5.375 J-1.137 F145.800 
G3 Y-71.363 Z-4.750 J1.137 F145.800 
G3 Y-73.637 Z-4.125 J-1.137 F145.800 
G3 Y-71.363 Z-3.500 J1.137 F145.800 
G3 Y-73.637 Z-2.875 J-1.137 F145.800 
G3 Y-71.363 Z-2.250 J1.137 F145.800 
G3 Y-73.637 Z-1.625 J-1.137 F145.800 
G3 Y-71.363 Z-1.000 J1.137 F145.800 
G3 Y-73.637 Z-0.375 J-1.137 F145.800 
G3 X-66.418 Y-72.149 Z0.000 J1.137 F145.800 
G3 X-67.500 Y-72.500 I-0.541 J-0.176 F145.800 
G0 Z5.000 
G0 Z5.000 
G0 X-67.500 Y-32.500 
G0 Z-16.000 
G3 Y-31.736 J0.382 F145.800 
G3 Y-33.264 Z-15.375 J-0.764 F145.800 
G3 Y-31.736 Z-14.750 J0.764 F145.800 
G3 Y-33.264 Z-14.125 J-0.764 F145.800 
G3 Y-31.736 Z-13.500 J0.764 F145.800 
G3 Y-33.264 Z-12.875 J-0.764 F145.800 
G3 Y-31.736 Z-12.250 J0.764 F145.800 
G3 Y-33.264 Z-11.625 J-0.764 F145.800 
G3 Y-31.736 Z-11.000 J0.764 F145.800 
G3 Y-33.264 Z-10.375 J-0.764 F145.800 
G3 Y-31.736 Z-9.750 J0.764 F145.800 
G3 Y-33.264 Z-9.125 J-0.764 F145.800 
G3 Y-31.736 Z-8.500 J0.764 F145.800 
G3 Y-33.264 Z-7.875 J-0.764 F145.800 
G3 Y-31.736 Z-7.250 J0.764 F145.800 
G3 Y-33.264 Z-6.625 J-0.764 F145.800 
G3 Y-31.736 Z-6.000 J0.764 F145.800 
G3 Y-33.264 Z-5.375 J-0.764 F145.800 
G3 Y-31.736 Z-4.750 J0.764 F145.800 
G3 Y-33.264 Z-4.125 J-0.764 F145.800 
G3 Y-31.736 Z-3.500 J0.764 F145.800 
G3 Y-33.264 Z-2.875 J-0.764 F145.800 
G3 Y-31.736 Z-2.250 J0.764 F145.800 
G3 Y-33.264 Z-1.625 J-0.764 F145.800 
G3 Y-31.736 Z-1.000 J0.764 F145.800 
G3 Y-33.264 Z-0.375 J-0.764 F145.800 
G3 X-66.774 Y-32.264 Z0.000 J0.764 F145.800 
G3 X-67.500 Y-32.500 I-0.363 J-0.118 F145.800 
G0 X-67.500 Y-32.500 
G0 Z-16.000 
G3 Y-31.363 J0.569 F145.800 
G3 Y-33.637 Z-15.375 J-1.137 F145.800 
G3 Y-31.363 Z-14.750 J1.137 F145.800 
G3 Y-33.637 Z-14.125 J-1.137 F145.800 
G3 Y-31.363 Z-13.500 J1.137 F145.800 
G3 Y-33.637 Z-12.875 J-1.137 F145.800 
G3 Y-31.363 Z-12.250 J1.137 F145.800 
G3 Y-33.637 Z-11.625 J-1.137 F145.800 
G3 Y-31.363 Z-11.000 J1.137 F145.800 
G3 Y-33.637 Z-10.375 J-1.137 F145.800 
G3 Y-31.363 Z-9.750 J1.137 F145.800 
G3 Y-33.637 Z-9.125 J-1.137 F145.800 
G3 Y-31.363 Z-8.500 J1.137 F145.800 
G3 Y-33.637 Z-7.875 J-1.137 F145.800 
G3 Y-31.363 Z-7.250 J1.137 F145.800 
G3 Y-33.637 Z-6.625 J-1.137 F145.800 
G3 Y-31.363 Z-6.000 J1.137 F145.800 
G3 Y-33.637 Z-5.375 J-1.137 F145.800 
G3 Y-31.363 Z-4.750 J1.137 F145.800 
G3 Y-33.637 Z-4.125 J-1.137 F145.800 
G3 Y-31.363 Z-3.500 J1.137 F145.800 
G3 Y-33.637 Z-2.875 J-1.137 F145.800 
G3 Y-31.363 Z-2.250 J1.137 F145.800 
G3 Y-33.637 Z-1.625 J-1.137 F145.800 
G3 Y-31.363 Z-1.000 J1.137 F145.800 
G3 Y-33.637 Z-0.375 J-1.137 F145.800 
G3 X-66.418 Y-32.149 Z0.000 J1.137 F145.800 
G3 X-67.500 Y-32.500 I-0.541 J-0.176 F145.800 
G0 Z5.000 
G0 Z5.000 
(finish operation: Thread_Milling)
(begin postamble)
M05
G17 G54 G90 G80 G40
M2
