(Exported by FreeCAD)
(Post Processor: linuxcnc_post)
(Output Time:2021-12-21 20:58:17.115418)
(begin preamble)
G17 G54 G40 G49 G80 G90
G21
(begin operation: Fixture)
(machine units: mm/min)
G54 
(finish operation: Fixture)
(begin operation: TC: 6mm Endmill)
(machine units: mm/min)
(TC: 6mm Endmill) 
M5
M6 T3 
G43 H3 
M3 S2500 
(finish operation: TC: 6mm Endmill)
(begin operation: Helix)
(machine units: mm/min)
(Helix) 
(helix cut operation) 
G0 Z5.000 
G0 X-24.041 Y-14.751 
G0 Z3.000 
G1 Z0.500 F180.000 
G3 X-26.441 Y-14.751 Z0.036 I-1.200 J0.000 F300.000 
G3 X-24.041 Y-14.751 Z-0.429 I1.200 J0.000 F300.000 
G3 X-26.441 Y-14.751 Z-0.893 I-1.200 J0.000 F300.000 
G3 X-24.041 Y-14.751 Z-1.357 I1.200 J0.000 F300.000 
G3 X-26.441 Y-14.751 Z-1.821 I-1.200 J0.000 F300.000 
G3 X-24.041 Y-14.751 Z-2.286 I1.200 J0.000 F300.000 
G3 X-26.441 Y-14.751 Z-2.750 I-1.200 J0.000 F300.000 
G3 X-24.041 Y-14.751 Z-3.214 I1.200 J0.000 F300.000 
G3 X-26.441 Y-14.751 Z-3.679 I-1.200 J0.000 F300.000 
G3 X-24.041 Y-14.751 Z-4.143 I1.200 J0.000 F300.000 
G3 X-26.441 Y-14.751 Z-4.607 I-1.200 J0.000 F300.000 
G3 X-24.041 Y-14.751 Z-5.071 I1.200 J0.000 F300.000 
G3 X-26.441 Y-14.751 Z-5.536 I-1.200 J0.000 F300.000 
G3 X-24.041 Y-14.751 Z-6.000 I1.200 J0.000 F300.000 
G3 X-26.441 Y-14.751 Z-6.000 I-1.200 J0.000 F300.000 
G3 X-24.041 Y-14.751 Z-6.000 I1.200 J0.000 F300.000 
G0 Z3.000 
G0 X-24.041 Y-64.249 
G0 Z3.000 
G1 Z0.500 F180.000 
G3 X-26.441 Y-64.249 Z0.036 I-1.200 J0.000 F300.000 
G3 X-24.041 Y-64.249 Z-0.429 I1.200 J0.000 F300.000 
G3 X-26.441 Y-64.249 Z-0.893 I-1.200 J0.000 F300.000 
G3 X-24.041 Y-64.249 Z-1.357 I1.200 J0.000 F300.000 
G3 X-26.441 Y-64.249 Z-1.821 I-1.200 J0.000 F300.000 
G3 X-24.041 Y-64.249 Z-2.286 I1.200 J0.000 F300.000 
G3 X-26.441 Y-64.249 Z-2.750 I-1.200 J0.000 F300.000 
G3 X-24.041 Y-64.249 Z-3.214 I1.200 J0.000 F300.000 
G3 X-26.441 Y-64.249 Z-3.679 I-1.200 J0.000 F300.000 
G3 X-24.041 Y-64.249 Z-4.143 I1.200 J0.000 F300.000 
G3 X-26.441 Y-64.249 Z-4.607 I-1.200 J0.000 F300.000 
G3 X-24.041 Y-64.249 Z-5.071 I1.200 J0.000 F300.000 
G3 X-26.441 Y-64.249 Z-5.536 I-1.200 J0.000 F300.000 
G3 X-24.041 Y-64.249 Z-6.000 I1.200 J0.000 F300.000 
G3 X-26.441 Y-64.249 Z-6.000 I-1.200 J0.000 F300.000 
G3 X-24.041 Y-64.249 Z-6.000 I1.200 J0.000 F300.000 
G0 Z3.000 
G0 X-73.538 Y-64.249 
G0 Z3.000 
G1 Z0.500 F180.000 
G3 X-75.938 Y-64.249 Z0.036 I-1.200 J0.000 F300.000 
G3 X-73.538 Y-64.249 Z-0.429 I1.200 J0.000 F300.000 
G3 X-75.938 Y-64.249 Z-0.893 I-1.200 J0.000 F300.000 
G3 X-73.538 Y-64.249 Z-1.357 I1.200 J0.000 F300.000 
G3 X-75.938 Y-64.249 Z-1.821 I-1.200 J0.000 F300.000 
G3 X-73.538 Y-64.249 Z-2.286 I1.200 J0.000 F300.000 
G3 X-75.938 Y-64.249 Z-2.750 I-1.200 J0.000 F300.000 
G3 X-73.538 Y-64.249 Z-3.214 I1.200 J0.000 F300.000 
G3 X-75.938 Y-64.249 Z-3.679 I-1.200 J0.000 F300.000 
G3 X-73.538 Y-64.249 Z-4.143 I1.200 J0.000 F300.000 
G3 X-75.938 Y-64.249 Z-4.607 I-1.200 J0.000 F300.000 
G3 X-73.538 Y-64.249 Z-5.071 I1.200 J0.000 F300.000 
G3 X-75.938 Y-64.249 Z-5.536 I-1.200 J0.000 F300.000 
G3 X-73.538 Y-64.249 Z-6.000 I1.200 J0.000 F300.000 
G3 X-75.938 Y-64.249 Z-6.000 I-1.200 J0.000 F300.000 
G3 X-73.538 Y-64.249 Z-6.000 I1.200 J0.000 F300.000 
G0 Z3.000 
G0 X-73.538 Y-14.751 
G0 Z3.000 
G1 Z0.500 F180.000 
G3 X-75.938 Y-14.751 Z0.036 I-1.200 J0.000 F300.000 
G3 X-73.538 Y-14.751 Z-0.429 I1.200 J0.000 F300.000 
G3 X-75.938 Y-14.751 Z-0.893 I-1.200 J0.000 F300.000 
G3 X-73.538 Y-14.751 Z-1.357 I1.200 J0.000 F300.000 
G3 X-75.938 Y-14.751 Z-1.821 I-1.200 J0.000 F300.000 
G3 X-73.538 Y-14.751 Z-2.286 I1.200 J0.000 F300.000 
G3 X-75.938 Y-14.751 Z-2.750 I-1.200 J0.000 F300.000 
G3 X-73.538 Y-14.751 Z-3.214 I1.200 J0.000 F300.000 
G3 X-75.938 Y-14.751 Z-3.679 I-1.200 J0.000 F300.000 
G3 X-73.538 Y-14.751 Z-4.143 I1.200 J0.000 F300.000 
G3 X-75.938 Y-14.751 Z-4.607 I-1.200 J0.000 F300.000 
G3 X-73.538 Y-14.751 Z-5.071 I1.200 J0.000 F300.000 
G3 X-75.938 Y-14.751 Z-5.536 I-1.200 J0.000 F300.000 
G3 X-73.538 Y-14.751 Z-6.000 I1.200 J0.000 F300.000 
G3 X-75.938 Y-14.751 Z-6.000 I-1.200 J0.000 F300.000 
G3 X-73.538 Y-14.751 Z-6.000 I1.200 J0.000 F300.000 
G0 Z3.000 
G0 Z5.000 
(finish operation: Helix)
(begin operation: TC: 8mm_Endmill001)
(machine units: mm/min)
(TC: 8mm_Endmill001) 
M5
M6 T13 
G43 H13 
M3 S2000 
(finish operation: TC: 8mm_Endmill001)
(begin operation: DressupTag)
(machine units: mm/min)
G0 Z5.000 
G0 X-15.224 Y-4.733 Z5.000 
G0 X-15.224 Y-4.733 Z3.000 
G1 X-15.224 Y-4.733 Z-1.500 F180.000 
G2 X-11.148 Y-13.304 Z-1.500 I-10.018 J-10.019 F270.000 
G2 X-16.297 Y-25.738 Z-1.500 I-14.093 J-1.447 F270.000 
G3 X-16.333 Y-53.230 Z-1.500 I10.736 J-13.760 F270.000 
G2 X-13.977 Y-55.656 Z-1.500 I-9.005 J-11.105 F270.000 
G2 X-36.255 Y-73.161 Z-1.500 I-11.264 J-8.593 F270.000 
G3 X-63.720 Y-73.157 Z-1.500 I-13.734 J-10.765 F270.000 
G2 X-66.152 Y-75.517 Z-1.500 I-11.105 J9.006 F270.000 
G2 X-83.648 Y-53.232 Z-1.500 I-8.586 J11.270 F270.000 
G3 X-83.646 Y-25.770 Z-1.500 I-10.768 J13.732 F270.000 
G2 X-85.994 Y-23.355 Z-1.500 I9.005 J11.104 F270.000 
G2 X-63.728 Y-5.834 Z-1.500 I11.256 J8.604 F270.000 
G3 X-36.259 Y-5.843 Z-1.500 I13.738 J10.761 F270.000 
G2 X-15.224 Y-4.733 Z-1.500 I11.017 J-8.909 F270.000 
G1 X-15.224 Y-4.733 Z-3.000 F180.000 
G2 X-11.148 Y-13.304 Z-3.000 I-10.018 J-10.019 F270.000 
G2 X-16.297 Y-25.738 Z-3.000 I-14.093 J-1.447 F270.000 
G3 X-16.333 Y-53.230 Z-3.000 I10.736 J-13.760 F270.000 
G2 X-13.977 Y-55.656 Z-3.000 I-9.005 J-11.105 F270.000 
G2 X-36.255 Y-73.161 Z-3.000 I-11.264 J-8.593 F270.000 
G3 X-63.720 Y-73.157 Z-3.000 I-13.734 J-10.765 F270.000 
G2 X-66.152 Y-75.517 Z-3.000 I-11.105 J9.006 F270.000 
G2 X-83.648 Y-53.232 Z-3.000 I-8.586 J11.270 F270.000 
G3 X-83.646 Y-25.770 Z-3.000 I-10.768 J13.732 F270.000 
G2 X-85.994 Y-23.355 Z-3.000 I9.005 J11.104 F270.000 
G2 X-63.728 Y-5.834 Z-3.000 I11.256 J8.604 F270.000 
G3 X-36.259 Y-5.843 Z-3.000 I13.738 J10.761 F270.000 
G2 X-15.224 Y-4.733 Z-3.000 I11.017 J-8.909 F270.000 
G1 X-15.224 Y-4.733 Z-4.500 F180.000 
G2 X-11.148 Y-13.304 Z-4.500 I-10.018 J-10.019 F270.000 
G2 X-16.297 Y-25.738 Z-4.500 I-14.093 J-1.447 F270.000 
G3 X-16.333 Y-53.230 Z-4.500 I10.736 J-13.760 F270.000 
G2 X-13.977 Y-55.656 Z-4.500 I-9.005 J-11.105 F270.000 
G2 X-36.255 Y-73.161 Z-4.500 I-11.264 J-8.593 F270.000 
G3 X-63.720 Y-73.157 Z-4.500 I-13.734 J-10.765 F270.000 
G2 X-66.152 Y-75.517 Z-4.500 I-11.105 J9.006 F270.000 
G2 X-83.648 Y-53.232 Z-4.500 I-8.586 J11.270 F270.000 
G3 X-83.646 Y-25.770 Z-4.500 I-10.768 J13.732 F270.000 
G2 X-85.994 Y-23.355 Z-4.500 I9.005 J11.104 F270.000 
G2 X-63.728 Y-5.834 Z-4.500 I11.256 J8.604 F270.000 
G3 X-36.259 Y-5.843 Z-4.500 I13.738 J10.761 F270.000 
G2 X-15.224 Y-4.733 Z-4.500 I11.017 J-8.909 F270.000 
G1 X-15.224 Y-4.733 Z-6.000 F180.000 
G2 X-11.148 Y-13.304 Z-6.000 I-10.018 J-10.019 F270.000 
G2 X-16.297 Y-25.738 Z-6.000 I-14.093 J-1.447 F270.000 
G3 X-16.333 Y-53.230 Z-6.000 I10.736 J-13.760 F270.000 
G2 X-13.977 Y-55.656 Z-6.000 I-9.005 J-11.105 F270.000 
G2 X-36.255 Y-73.161 Z-6.000 I-11.264 J-8.593 F270.000 
G3 X-63.720 Y-73.157 Z-6.000 I-13.734 J-10.765 F270.000 
G2 X-66.152 Y-75.517 Z-6.000 I-11.105 J9.006 F270.000 
G2 X-83.648 Y-53.232 Z-6.000 I-8.586 J11.270 F270.000 
G3 X-83.646 Y-25.770 Z-6.000 I-10.768 J13.732 F270.000 
G2 X-85.994 Y-23.355 Z-6.000 I9.005 J11.104 F270.000 
G2 X-63.728 Y-5.834 Z-6.000 I11.256 J8.604 F270.000 
G3 X-36.259 Y-5.843 Z-6.000 I13.738 J10.761 F270.000 
G2 X-15.224 Y-4.733 Z-6.000 I11.017 J-8.909 F270.000 
G0 X-15.224 Y-4.733 Z5.000 
(finish operation: DressupTag)
(begin postamble)
M05
G17 G54 G90 G80 G40
M2
